!!!!SEGMENT: pl-wn--mus-iv-141-999-cim--001_zelenski-wladyslaw--sonata-op-5-allegro-deciso.krn
!!!cenid: 18xx:3670
!!!COM: Żeleński, Władysław
!!!COM-rismID: pe41024455
!!!CDT: 1837/07/06-1921/01/23
!!!CNT: Polish
!!!OPR: Sonata op. 5
!!!OTL: Allegro deciso
!!!OMV: 001
!!!PDT:
!!!AGN:
!!!SMS-siglum: PL-Wn
!!!SMS-shelfmark: Mus.IV.141.999 Cim.
!!!SMS-shelfwork: 001-001 M
!!!SMS-variant:
!!!SMS-altvar:
!!!NIFC-rismSourceID:
!!!NIFC-rismChildID:
!!!NIFC-islandoraID: none
!!!URL-pdf-islandora:
!!!URL-scan: https://polona.pl/item/sonata-per-pianoforte-op-5,NzQ5NTg0MTA/2 @EN{Scan on Polona} @PL{Skany w portalu Polona}
!!!IIIF: https://polona.pl/iiif/item/NzQ5NTg0MTA/manifest.json
!!!ONB-nifc: UWAGA: części Sonaty: 1. Allegro deciso, 2. Adagio e capriccio, 3. Rondo
!!!OMD: M.M. [quarter] = 116. Allegro deciso
!!!AIN: 1 piano
!!!key: g
**kern	**kern	**dynam
*part1	*part1	*part1
*staff2	*staff1	*
*I"[Pianoforte]	*I"[Pianoforte]	*
*Ipiano	*Ipiano	*
*ICklav	*ICklav	*
*clefF4	*clefG2	*
*kcancel	*kcancel	*
*k[b-e-]	*k[b-e-]	*
*g:	*g:	*
*M4/4	*M4/4	*
*met(c)	*met(c)	*
*>[A,A1,A,A2,B]	*>[A,A1,A,A2,B]	*
=1	=1	=1
*>A	*>A	*>A
*xywh-#6:500,489,2612,952	*xywh-#6:500,489,2612,952	*
!	!LO:TX:t=P:problem:przenośnik oktawowy z oznaczeniem 8a (a w indeksie górnym)	!
2G 2GG\	2gg 2g\	ff
2B- 2BB-\	2bb- 2b-\	.
=2	=2	=2
[2D [2DD/	2dd 2d/	.
8D] 8DD/]	8r	.
8r	8dd\L	.
.	8qff/	.
4r	8ee-\	p
.	8dd\J	.
=3	=3	=3
!	!LO:TX:b:i:t=espressivo	!
8r	([2ddd\	.
(8B-L 8G\	.	.
8A 8F#X\	.	.
8B-J 8G\	.	.
8gL 8B-\	8ddd\L]	.
8B- 8G\	8bb- 8dd\	.
8c 8A\	8aa 8ff#X\	.
8dJ 8B-\)	8gg\J)	.
=4	=4	=4
*	*^	*
*	*	*xywh-#6:500,489,2612,952	*
[2g [2c\	4.ff/	[2cc\	.
.	8een/	.	.
4g] 4c\]	4ee-X/	4cc\]	.
4r	4r	4ryy	.
*	*v	*v	*
!!LO:LB:g=original
=5	=5	=5
*xywh-#6:496,1392,2612,551	*xywh-#6:496,1392,2612,551	*
8r	2ee-\	.
!	!	!LO:HP:b=2
(8cL 8A\	.	<
8a 8c\	.	.
!	!	!LO:HP:b=2
8gJ 8B-\	.	[>
8f#X 8A\)	8r	]
8r	(16ee-\LL	.
.	16dd\JJ	.
4r	16ee-\LL	.
.	16cc\	.
.	16a\	.
.	16g\JJ)	.
=6	=6	=6
*^	*	*
*	*xywh-#6:496,1392,2612,551	*	*
8r	8ryy	8f#X/	.
8A 8C\	8ryy	8r	<
[4e-/	(>8A\L	[4cc^\	.
.	8G\J	.	[>
8e-/]	8F#X\)	8cc\L]	]
8r	8ryy	(16cc\L	.
.	.	16bn\JJ	.
4r	4ryy	16cc/LL	.
.	.	16a/	.
.	.	16f#/	.
.	.	16e-/JJ)	.
*v	*v	*	*
=7	=7	=7
8r	2d/	.
!	!	!LO:HP:a=2
(8F#XL 8AA\	.	<
8A 8C\	.	.
!	!	!LO:HP:a=2
8GJ 8BB-\	.	[>
8F# 8AA\)	8r	]
8r	(16e-/LL	.
.	16d/JJ	.
4r	16c#X/LL	.
.	16d/	.
.	16A/	.
.	16d/JJ)	.
!!LO:LB:g=original
=8	=8	=8
*xywh-#6:472,1931,2575,629	*xywh-#6:472,1931,2575,629	*
8r	16Bn/LL	.
.	16d/	.
[4.G [4.D [4.BBn [4.FF^/	16f#X/	.
.	16g/JJ	.
!	!	!LO:HP:t=cres.
.	16bn/LL	<
.	16f#/	.
.	16g/	.
.	16c#X/JJ	.
8G] 8D] 8BB] 8FF/]	16d/LL	.
.	16g/	.
[4.D [4.BB [4.GG [4.DD^/	16a#X/	.
.	16b/JJ	.
.	16dd/LL	.
.	16a#/	.
.	16b/	.
.	16f#/JJ	.
=9	=9	=9
8D] 8BBnX] 8GG] 8DD/]	16g\LL	.
.	16bn\	.
[4.BB [4.GG [4.DD [4.BBBn^/	16dd\	.
.	16ff#X\JJ	.
!	!	!LO:DY:t=più forte
.	16gg\LL	f
.	16cc#X\	.
.	16dd\	.
.	16a#X\JJ	.
8BB] 8GG] 8DD] 8BBB/]	16b\LL	.
.	16dd\	.
4.GG 4.DD 4.BBB 4.FFF^/	16ff#\	.
.	16gg\JJ	.
.	16bbn\LL	.
.	16ff#\	.
.	16gg\	.
.	16bb\JJ	.
=10	=10	=10
8EE- 8EEE-/	8ccc\	.
*	*8va	*
8r	16eeee-\L	f
.	16fff#X\JJ	.
2C 2GG 2EE- 2CC/	16ggg\LL	.
.	16cccc\	.
.	16eee-\	.
.	16ggg\JJ	.
.	16bbn\LL	.
.	16ccc\	.
.	16eee-\	.
.	16ff#X\JJ	.
[4E- [4C [4GG [4EE-/	16gg/LL	.
.	16ccc/	.
.	16ee-/	.
.	16gg/JJ	.
*	*X8va	*
!!LO:LB:g=original
=11	=11	=11
*xywh-#6:463,2521,2580,624	*xywh-#6:463,2521,2580,624	*
4E-] 4C] 4GG] 4EE-/]	16bn/LL	.
.	16dd/	.
.	16ee-/	.
.	16f#X/JJ	.
2G 2E- 2C 2GG/	16g/LL	.
.	16cc/	.
.	16e-/	.
.	16g/JJ	.
.	16Bn/LL	.
.	16c/	.
.	16e-/	.
.	16F#X/JJ	.
4E- 4C 4GG 4EE-/	16G/LL	.
.	16c/	.
.	16e-/	.
.	16g/JJ	.
=12	=12	=12
!	!LO:TX:b:i:t=un poco ritard.	!LO:DY:b:rj
2C 2CC/	2a-X 2e-X 2A-X/	pp
2E- 2EE-/	2g 2c 2G/	.
=13	=13	=13
2AA 2AAA/	2f#X 2e-X 2c 2F#X/	.
2C 2CC\	2e- 2c 2A< 2E-</	.
=14	=14	=14
8FF#X 8FFF#X\	8d 8A< 8D</	.
!	!LO:TX:b:i:t=a tempo	!
8rEE	8r	.
4rEE	[4d^/	.
2c 2F#X\	8d/L]	.
.	8d/	.
.	8qf/	.
.	8e-/	.
.	8d/J	.
=15	=15	=15
8B- 8G\	8g/	.
8r	8r	.
4r	[4dd^\	.
*clefG2	*	*
2a 2f#X 2c/	8dd\L]	.
.	8dd\	.
.	8qff/	.
.	8ee-\	.
.	8dd\J	.
!!LO:LB:g=original
=16	=16	=16
*xywh-#6:455,3099,2593,738	*xywh-#6:455,3099,2593,738	*
8g 8d 8B-/	8gg\	.
8r	8r	.
4r	[4g/	.
2fn 2Bn/	8g/L]	.
!	!	!LO:HP:t=cres.
.	8g/	<
.	8qb-/	.
.	8a-X/	.
.	8g/J	.
=17	=17	=17
8e- 8c/	8cc\	.
8r	8r	.
4r	[4gg\	.
2dd 2bn 2fn/	8gg\L]	.
.	8gg\	.
.	8qbb-/	.
.	8aa-X\	.
.	8gg\J	.
=18	=18	=18
8cc 8g 8e-/	8ccc\	.
8r	8r	.
*	*8va	*
*Xtuplet	*Xtuplet	*
[4eee-^\	[4eeee-^<\	.
12eee-\L]	12eeee-\L]	f
12ddd\	12dddd\	.
12eee-\J	12eeee-\J	.
12bbn\L	12bbbn\L	.
12ccc\	12cccc\	.
12aa\J	12aaa\J	.
=19	=19	=19
8gg\L	8ggg\L	.
8ff#X\J	8fff#X\J	.
[4ccc\	[4cccc\	.
12ccc\L]	12cccc\L]	.
12bbn\	12bbbn\	.
12ccc\J	12cccc\J	.
12gg#X\L	12ggg#X\L	.
12aa\	12aaa\	.
12ff#\J	12fff#\J	.
*	*X8va	*
!!LO:PB:g=original
=20	=20	=20
*xywh-#7:240,511,2758,755	*xywh-#7:240,511,2758,755	*
12dd\L	12ddd\L	.
12cc\	12ccc\	.
12ee-\J	12eee-\J	.
12bn\L	12bbn\L	.
12cc\	12ccc\	.
12g#X\J	12gg#X\J	.
!	!	!LO:HP:t=cres.
12a/L	12aa\L	<
12e#X/	12ee#X\	.
12f#X/J	12ff#X\J	.
12d/L	12dd\L	.
12e-X/	12ee-X\	.
12Bn/J	12bn\J	.
*clefF4	*	*
=21	=21	=21
12c\L	12cc/L	.
12G#X\	12g#X/	.
12A\J	12a/J	.
12E#X\L	12e#X/L	.
12F#X\	12f#X/	.
12D\J	12d/J	.
12E-X\L	12e-X/L	.
12BBn\	12Bn/	.
12C\J	12c/J	.
12C\L	12A</L	.
12FF#X\	12F#X</	.
12DD\J	12D</J	.
=22	=22	=22
8GG\	8G</	.
8r	8r<	.
4BBn 4DD 4BBBn/	4aa-X 4ff 4dd 4a-X\	ff
4C 4EE- 4CC/	4gg 4ee- 4cc 4g\	.
4D 4BB 4FF 4DD/	4ff 4dd 4bn 4f\	.
=23	=23	=23
8E- 8C 8GG 8EE-/	8ee- 8cc 8g 8e-\	.
8r	8r	.
4AA 4EE- 4CC 4AAA/	4eee- 4ccc 4aan 4ee-\	.
4C 4AA 4EE- 4CC/	4ccc 4aa 4ee- 4cc\	.
4E- 4C 4GG 4EE-/	4gg 4ee- 4cc 4g\	.
!!LO:LB:g=original
=24	=24	=24
*xywh-#7:240,1228,2753,608	*xywh-#7:240,1228,2753,608	*
4D 4BB- 4GG 4DD/	4bb- 4gg 4dd 4b-\	p
4r	4r	.
4D 4AA 4DD/	4aa 4ff#X 4dd 4a\	.
4r	4r	.
=25	=25	=25
8r	2dd\	.
(8GG/L	.	<
8BB-/	.	.
8D/J	.	.
8G\L	2gg 2b-\	.
8B-\	.	.
8e-\	.	.
8d\J	.	.
=26	=26	=26
*	*^	*
*	*	*xywh-#7:240,1228,2753,608	*
8c\L	2.gg/	(4.a\	.
8C\	.	.	.
8c\	.	.	.
8B-\J	.	8b-\	.
8A\L	.	8cc\L	.
8B-\	.	8dd\J	.
8c\	8ee-/L	4a\)	.
[8e-\J)	8cc/J	.	[[
=27	=27	=27	=27
(4.e-\]	4b-/	2.f#\	>
.	4a/	.	.
8c\	.	.	.
8A\L	4ee-/	.	.
8c\	.	.	.
8F#X\	4dd/	4a\	.
[8A\J	.	.	.
*	*v	*v	*
=28	=28	=28
*^	*	*
*	*xywh-#7:240,1228,2753,608	*	*
8A/L]	[2GG\	2cc 2d/	.
8D/	.	.	]
8En/	.	.	.
8F#X/J	.	.	.
.	.	16qqb-/LL	.
.	.	16qqdd/	.
.	.	16qqcc/JJ	.
8G/L	8GG\]	4b- 4g/	.
8B-/	8rEE	.	.
8D/	4r	4r	.
8G/J)	.	.	.
*v	*v	*	*
!!LO:LB:g=original
=29	=29	=29
*xywh-#7:235,1812,2763,667	*xywh-#7:235,1812,2763,667	*
*ped	*	*
(8GG\L	2dd 2b-\	.
8BB-\	.	.
8D\	.	.
8G\J	.	.
8B-\L	[2gg 2b-\	.
8d\	.	.
8g\	.	.
*Xped	*	*
8f\J)	.	.
=30	=30	=30
*	*^	*
*	*	*xywh-#7:235,1812,2763,667	*
8e-\	8gg]L 8g\	2ryy	.
8r	(8dd\	.	.
4r	8ee-\)	.	.
.	(8bn\J	.	.
4r	8cc/L)	4reyy	.
.	(>8g/J	.	.
!	!	!	!LO:HP:t=cres.
4c 4E-\	8cc/L)	4g\	<
.	(8b/J	.	.
*	*v	*v	*
=31	=31	=31
*ped	*	*
(8cL 8F\	8a 8f/)	<
8FF\	8r	.
8AA\	4r	.
8C\J	.	.
8F\L	[2fff [2ff\	.
8A\	.	.
8c\	.	.
8e-\J)	.	[
*Xped	*	*
=32	=32	=32
8d\	8fff]L 8ff\]	.
8r	(8ccc#X\	.
!	!	!LO:HP:t=dimin.
4r	8ddd\)	>
.	(8aa\J	.
2r	8bb-\L)	.
.	(8een\	.
.	8ff\)	.
.	(8dd\J	.
!!LO:LB:g=original
=33	=33	=33
*xywh-#7:265,2469,2685,598	*xywh-#7:265,2469,2685,598	*
4r	(1b-)	pp
4d-X 4En\	.	.
4d- 4E\	.	.
4d- 4E\	.	.
=34	=34	=34
2c 2F\	4b-\)	.
.	(8a\L	<
.	8cc\J	.
2r	8ee-\L	.
.	8cc\	[>
.	8gg\	.
.	8ff\J)	]
=35	=35	=35
!	!LO:TX:t=P:problem:tryl do połowy taktu	!
!	!LO:TX:t=P:problem:dynamics with extension lines	!LO:HP:t=crescendo-poco-a-poco
8r	1ffTT	<
*ped	*	*
!	!	!LO:HP:b=2
(8DD/L	.	<
8AA-X/	.	.
8BBn/J	.	.
8F\L	.	.
8A-X\	.	.
8f\	.	.
*Xped	*	*
8d\J)	.	[[
.	32qqee-/LLL	.
.	32qqff/JJJ	.
=36	=36	=36
!	!LO:TX:t=P:problem:tryl do połowy taktu	!
8r	1aa-XTT	.
*ped	*	*
!	!	!LO:HP:b=2
(8CC/L	.	<
8AA-X/	.	.
8C/J	.	.
8F\L	.	.
8A-X\	.	.
8f\	.	.
*Xped	*	*
8c\J)	.	[[
=37	=37	=37
8r	[2aa-XT\	.
*ped	*	*
!	!	!LO:HP:b=2
(8BBB-/L	.	<
8AA-X/	.	.
8D/J	.	.
*Xped	*	*
8F\L	8aa-\L]	.
8Bn\	8gg\	.
8f\	8dd\	.
8d\J)	8ff\J	[[
!!LO:LB:g=original
=38	=38	=38
*xywh-#7:260,3039,2690,760	*xywh-#7:260,3039,2690,760	*
16c/LL	8ee-\	.
16EE-/	.	.
16GG/	8r	.
16C/JJ	.	.
16E-\LL	[4ggg [4gg^\	mf
16G\	.	.
16c\	.	.
16e-\JJ	.	.
8g\	16ggg]LL 16gg\]	.
.	16fff#X\	.
8r	16ggg\	.
.	16ddd\JJ	.
4r	16eee-\LL	.
.	16ccc\	.
.	16gg\	.
.	16ee-\JJ	.
=39	=39	=39
16E-\LL	16gg\LL	.
16G\	16ff#X\	.
16c\	16gg\	.
16e-\JJ	16dd\JJ	.
8g\	16ee-\LL	.
.	16cc\	.
8r	16g\	.
.	16e-\JJ	.
16EE-/LL	16g/LL	.
16GG/	16f#X/	.
16C/	16g/	.
16E-/JJ	16d/JJ	.
8G\	16e-/LL	.
.	16c/	.
8r	16G</	.
.	16E-</JJ	.
=40	=40	=40
16r	8C</	.
16AAA\LL	.	.
16CC\	8r<	.
16FF\JJ	.	.
!	!	!LO:DY:t=sempre più forte
16AA\LL	[4eee- [4ee-^\	f
16C\	.	.
16F\	.	.
16A\JJ	.	.
8c\	16eee-]LL 16ee-\]	.
.	16ddd\	.
8r	16eee-\	.
.	16bbn\JJ	.
4r	16ddd\LL	.
.	16ccc\	.
.	16aa\	.
.	16ff\JJ	.
!!LO:PB:g=original
=41	=41	=41
*xywh-#8:400,508,2672,773	*xywh-#8:400,508,2672,773	*
16AA\LL	16ee-\LL	.
16C\	16dd\	.
16F\	16ee-\	.
16A\JJ	16bn\JJ	.
8c\	16dd\LL	.
.	16cc\	.
8r	16a\	.
.	16f\JJ	.
16AAA/LL	16e-/LL	.
16CC/	16d/	.
16FF/	16e-/	.
16AA/JJ	16Bn/JJ	.
8C\	16d/LL	.
.	16c/	.
8r	16A</	.
.	16F</JJ	.
=42	=42	=42
16rGG	8D</	.
16DD\LL	.	.
16FF\	8rB<	.
16BB-\JJ	.	.
16D\LL	[4fff [4ff^\	.
16F\	.	.
16B-\	.	.
16d\JJ	.	.
8f\	16fff]LL 16ff\]	.
.	16eeen\	.
8r	16fff\	.
.	16ccc#X\JJ	.
4r	16ddd\LL	.
.	16bb-\	.
.	16ff\	.
.	16dd\JJ	.
=43	=43	=43
16D\LL	16ff\LL	.
16F\	16een\	.
16B-\	16ff\	.
16d\JJ	16cc#X\JJ	.
8f\	16dd/LL	.
.	16b-/	.
8r	16f/	.
.	16d/JJ	.
16DD/LL	16f/LL	.
16FF/	16en/	.
16BB-/	16f/	.
16D/JJ	16c#X/JJ	.
8F\	16d/LL	.
.	16B-</	.
8r	16F</	.
.	16D</JJ	.
!!LO:LB:g=original
=44	=44	=44
*xywh-#8:390,1257,2681,592	*xywh-#8:390,1257,2681,592	*
8C-X 8CC-X\	8fL 8d-X 8A-X/	pp
8rEE	16C</L	.
.	16D-X</JJ	.
4rEE	16F</LL	.
.	16A-X</	.
.	16d-/	.
.	16f/JJ	.
8r	8a/L	.
4c-X 4A-X\	16c/L	.
.	16d-/JJ	.
.	16f\LL	.
.	16a-X\	.
8A- 8F\	16dd-X\	.
.	16ff\JJ	.
=45	=45	=45
8F 8D-X\	8aa-X\	.
*clefG2	*	*
16cc-X\LL	8r	.
16b-\JJ	.	.
16cc-/LL	4r	.
16a-X/	.	.
16f/	.	.
16a-/JJ	.	.
8d-X/	16r	.
.	16f\LL	.
*clefF4	*	*
8d-XL 8c-X\	16a-X\	.
.	16dd-X\JJ	.
8d- 8A-X\	16ff\LL	.
.	16aa-X\	.
8d-J 8F\	16ddd-X\	.
.	16fff\JJ	.
=46	=46	=46
!	!LO:TX:t=P:problem:mixed beam	!
8BB-\	8ggg-XL 8ddd-X 8gg-X\	.
8rEE	16C</L	.
.	16D-X</JJ	.
4rEE	16F</LL	.
.	16G-X<</	.
.	16B-</	.
.	16d-X/JJ	.
8r	8g-X/L	.
4B- 4G-X\	16c/L	.
!	!	!LO:HP:t=cres.
.	16d-X/JJ	<
.	16f/LL	.
.	16g-/	.
8G- 8D-X\	16b-/	.
.	16dd-X/JJ	.
!!LO:LB:g=original
=47	=47	=47
*xywh-#8:385,1825,2681,655	*xywh-#8:385,1825,2681,655	*
8D-X 8BB-/	8gg-X\	.
*clefG2	*	*
16g-X/LL	8r	.
16f/JJ	.	.
16g-/LL	4r	.
16d-X/	.	.
16B-/	.	.
16d-/JJ	.	.
*clefF4	*	*
8G-X\L	16r	.
.	16d-X/LL	.
8G- 8D-X\	16g-X/	.
.	16b-/JJ	.
8D- 8BB-\	16dd-X\LL	.
.	16gg-X\	.
8BB-J 8GG-X\	16bb-\	.
.	16ddd-X\JJ	.
=48	=48	=48
*	*^	*
*	*	*xywh-#8:385,1825,2681,655	*
8D 8DD/	8ccc-X\L 8aa-X 8ff 8cc-X	8ryy	.
*	*8va	*8va	*
!	!	!	!LO:DY:rj
4BB- 4BBB-/	16aaa-\L	8cccc-/	f
.	16ggg\JJ	.	.
.	16cccc- 16aaa-\LL	8ryy	.
.	16ccc-\	.	.
4D 4DD/	16fff\	8aaa-/	.
.	16eeen\JJ	.	.
.	16aaa- 16fff\LL	8ryy	.
.	16aa-X\	.	.
4F 4FF/	16ddd\	8fff/	.
.	16ccc#X\JJ	.	.
.	16fff 16ddd\LL	8ryy	.
.	16ff\	.	.
[8B- [8BB-\	16bb-\	8ddd/	.
.	16aan\JJ	.	.
=49	=49	=49	=49
8B-] 8BB-\]	16dddLL 16bb-\	8ryy	.
.	16dd\	.	.
4d 4D\	16ff\	8aa-X/	.
.	16een\JJ	.	.
*	*X8va	*X8va	*
*	*	*	*
.	16aa- 16ff\LL	8ryy	.
.	16a-\	.	.
[8fL [8F\	16dd\	8ff/	.
.	16cc#X\JJ	.	.
8f]J 8F\]	8ffL 8dd\	2ryy	.
*clefG2	*	*	*
8fL 8d'/	8aa-X 8ff 8b-'\	.	p
8g-X 8e-'/	8gg-X 8ee- 8b-'\	.	.
8a-XJ 8f'/	8ddJ 8b-'\	.	.
!!LO:LB:g=original
=50	=50	=50	=50
*xywh-#8:415,2451,2652,611	*xywh-#8:415,2451,2652,611	*xywh-#8:415,2451,2652,611	*
8g-X 8e-/	8ee-L 8b-\	8ryy	.
*clefF4	*	*	*
*	*8va	*8va	*
4E- 4EE-/	16bbb- 16ggg-X\L	8bbb-/	f
.	16fff\JJ	.	.
.	16bbb-LL 16ggg-\	8ryy	.
.	16bb-\	.	.
4B- 4BB-\	16ggg- 16eee-\	8ggg-/	.
.	16ddd\JJ	.	.
.	16ggg-LL 16eee-\	8ryy	.
.	16gg-X\	.	.
4G-X 4GG-X\	16eee- 16bb-\	8eee-/	.
.	16aan\JJ	.	.
.	16eee-LL 16bb-\	8ryy	.
.	16ee-\	.	.
[8e- [8E-\	16bb- 16gg-\	8bb-/	.
.	16ff\JJ	.	.
*	*v	*v	*
*	*X8va	*
=51	=51	=51
*	*^	*
*	*	*xywh-#8:415,2451,2652,611	*
8e-] 8E-\]	16bb-LL 16gg-X\	8ryy	.
.	16b-\	.	.
4B- 4BB-\	16gg- 16ee-\	8gg-/	.
.	16dd\JJ	.	.
.	16gg-LL 16ee-\	8ryy	.
.	16g-X\	.	.
[8g-X [8G-X\	16ee- 16b-\	8ee-/	.
.	16an\JJ	.	.
8g-]L 8G-\]	8ee-L 8b-\	2ryy	.
8E- 8C'\	8gg- 8b-'\	.	.
8G- 8E-'\	8ee- 8g-'\	.	.
8B-J 8G-'\	8b-J 8e-'\	.	.
*	*v	*v	*
=52	=52	=52
8A 8F\	8ccL 8e-\	.
8r	16ggg-XL 16eee-\	f
.	16fffJJ 16ddd-X\	.
4r	16eee-LL 16ccc\	.
.	16ddd- 16bb-\	.
.	16ccc 16aan\	.
.	16ddd-JJ 16bb-\	.
2r	16eee-LL 16ccc\	.
.	16ddd- 16bb-\	.
.	16ccc 16aa\	.
.	16bb-JJ 16gg-X\	.
.	16aaLL 16ff\	.
.	16gg- 16ee-\	.
.	16ff 16dd-X\	.
.	16ee-JJ 16cc\	.
!!LO:LB:g=origianl
=53	=53	=53
*xywh-#8:410,3029,2657,753	*xywh-#8:410,3029,2657,753	*
2r	16dd-XLL 16b-\	.
.	16cc 16a\	.
.	16gg-X 16ee-\	.
.	16ffJJ 16dd-\	.
!	!	!LO:HP:t=dimin.
.	16ee-LL 16cc\	>
.	16dd- 16b-\	.
.	16cc 16a\	.
.	16dd-JJ 16b-\	.
8r	16ee-LL 16cc\	.
.	16dd- 16b-\	.
(8AAL 8FF/	16cc 16a\	.
.	16b-JJ 16g-X\	.
8BB- 8GG/	16aLL 16f/	.
.	16g- 16e-/	.
8CJ 8AA/)	16f 16d-X/	.
.	16e-JJ 16c/	.
=54	=54	=54
*^	*	*^
*	*xywh-#8:410,3029,2657,753	*	*	*
*ped	*	*	*	*
8D-X 8BB-/	8ryy	(16d-XLL 16B-/	p<	.
.	.	16f/	.	.
!	!	!	!	!LO:HP:b=2
8B-/L	4.F\	16b-/	.	<
.	.	16dd-X/JJ	[[	[[
!	!	!	!	!LO:HP:b=2
8e-^</	.	16a\LL	>	>
.	.	16gg-X^\	.	]]
8d-X/J	.	16b-\	]]	.
.	.	16ff\JJ	.	.
8BB-/	8ryy	16dd-LL 16b-\	<	.
.	.	16f\	.	.
!	!	!	!	!LO:HP:b=2
8B-/L	4.F\	16b-\	.	<
.	.	16dd-\JJ	[[	[[
!	!	!	!	!LO:HP:b=2
8e-^</	.	16a\LL	>	>
.	.	16gg-\	.	]]
*Xped	*	*	*	*
8d-X/J	.	16b-\	.	.
.	.	16ff\JJ)	]	.
*	*	*	*v	*v
=55	=55	=55	=55
*ped	*	*	*
8FF/	8ryy	16ee-LL 16cc\	.
.	.	16f\	.
!	!	!	!LO:HP:b=2
8A/L	4.F\	16cc\	<
.	.	16ee-\JJ	.
!	!	!	!LO:HP:b=2
8e-^</	.	16a\LL	[>
.	.	16gg-X\	.
8A/J	.	16cc\	]
.	.	16ff\JJ	.
8FF/	8ryy	16ee-LL 16cc\	.
.	.	16f\	.
!	!	!	!LO:HP:b=2
8A/L	4.F\	16cc\	<
.	.	16ee-\JJ	.
!	!	!	!LO:HP:b=2
8e-^</	.	16a\LL	[>
.	.	16gg-\	.
*Xped	*	*	*
8A/J	.	16cc\	]
.	.	16ff\JJ	.
!!LO:PB:g=original
=56	=56	=56	=56
*xywh-#9:294,508,2628,702	*xywh-#9:294,508,2628,702	*xywh-#9:294,508,2628,702	*
*ped	*	*	*
8BB-/	8ryy	16dd- 16b-\LL	.
.	.	16f\	.
!	!	!	!LO:HP:b=2
8B-/L	4.F\	16b-\	<
.	.	16dd-\JJ	.
!	!	!	!LO:HP:b=2
8e-^/	.	16a\LL	[>
.	.	16gg-\	.
8d-/J	.	16b-\	]
.	.	16ff\JJ	.
8BB-/	8ryy	16dd- 16b-\LL	.
.	.	16f\	.
!	!	!	!LO:HP:b=2
8B-/L	4.F\	16b-\	<
.	.	16dd-\JJ	.
!	!	!	!LO:HP:b=2
8e-^/	.	16a\LL	[>
.	.	16gg-\	.
*Xped	*	*	*
8d-/J	.	16b-\	]
.	.	16ff\JJ	.
=57	=57	=57	=57
*ped	*	*	*
8BB-/	8ryy	16ffLL 16ddn\	.
.	.	16b-\	.
!	!	!	!LO:HP:b=2
8d/L	4.B-\	16ff\	<
.	.	16aa-X\JJ	.
!	!	!	!LO:HP:b=2
8a-X^/	.	16dd\LL	[>
.	.	16ccc-X\	.
8d/J	.	16ff\	]
.	.	16bb-\JJ	.
8BB-/	8ryy	16aa-LL 16ff\	.
.	.	16b-\	.
!	!	!	!LO:HP:b=2
8d/L	4.B-\	16ff\	<
.	.	16aa-\JJ	.
!	!	!	!LO:HP:b=2
8a-^/	.	16dd\LL	[>
.	.	16ccc-\	.
*Xped	*	*	*
8d/J	.	16ff\	]
.	.	16bb-\JJ	.
=57	=57	=57	=57
*ped	*	*	*
8E-/	8ryy	16gg-XLL 16ee-\	.
.	.	16b-\	.
!	!	!	!LO:HP:b=2
8e-/L	4.B-\	16ee-\	<
.	.	16gg-\JJ	.
!	!	!	!LO:HP:b=2
8a-X^/	.	16ee-\LL	[>
.	.	16ccc-X\	.
8g-X/J	.	16ee-\	]
.	.	16bb-\JJ	.
8E-/	8ryy	16gg-LL 16ee-\	.
.	.	16b-\	.
!	!	!	!LO:HP:b=2
8e-/L	4.B-\	16ee-\	<
.	.	16gg-\JJ	.
!	!	!	!LO:HP:b=2
8a-^/	.	16dd\LL	[>
.	.	16ccc-\	.
*Xped	*	*	*
8g-/J	.	16ee-\	]
.	.	16bb-\JJ	.
!!LO:LB:g=original
=58	=58	=58	=58
*xywh-#9:284,1183,2650,666	*xywh-#9:284,1183,2650,666	*xywh-#9:284,1183,2650,666	*
*ped	*	*	*
8BB-/	8ryy	16aa-XLL 16ff\	.
.	.	16b-\	.
!	!	!	!LO:HP:b=2
8d/L	4.B-\	16ff\	<
.	.	16aa-\JJ	.
!	!	!	!LO:HP:b=2
8a-X^/	.	16dd\LL	[>
.	.	16ccc-X\	.
8d/J	.	16ff\	]
.	.	16bb-\JJ	.
8BB-/	8ryy	16aa-LL 16ff\	.
.	.	16b-\	.
!	!	!	!LO:HP:b=2
8d/L	4.B-\	16ff\	<
.	.	16aa-\JJ	.
!	!	!	!LO:HP:b=2
8a-^/	.	16dd\LL	[>
.	.	16ccc-\	.
*Xped	*	*	*
8d/J	.	16ff\	]
.	.	16bb-\JJ	.
=59	=59	=59	=59
8E-/	8ryy	16gg-XLL 16ee-\	.
.	.	16gg-\	.
*clefG2	*	*	*
(8ee-/L	[4.e-\	16ggg-X\	.
.	.	16gg-\JJ	.
8cc/	.	16eee-\LL	.
.	.	16gg-\	.
8b-/J	.	16ddd-X\	.
.	.	16gg-\JJ	.
8a/)	8e-\]	16ccc\LL	.
.	.	16ee-\	.
(8cc/L	[4.c\	16eee-\	.
.	.	16ee-\JJ	.
8a/	.	16ccc\LL	.
.	.	16ee-\	.
8g-X/J	.	16bb-\	.
.	.	16ee-\JJ	.
=60	=60	=60	=60
8f/)	8c\]	16aa\LL	.
.	.	16ee-\	.
(8cc/L	[4.c\	16eee-\	.
.	.	16ee-\JJ	.
8a/	.	16ccc\LL	.
.	.	16ee-\	.
8g-X/J	.	16bb-\	.
.	.	16ee-\JJ	.
8f/)	8c\]	16aa\LL	.
.	.	16ee-\	.
(8a/L	[4.A\	16ccc\	.
.	.	16cc\JJ	.
8f/	.	16aa\LL	.
.	.	16cc\	.
8e-/J	.	16gg\	.
.	.	16cc\JJ	.
!!LO:LB:g=original
=61	=61	=61	=61
*xywh-#9:263,1804,2678,597	*xywh-#9:263,1804,2678,597	*xywh-#9:263,1804,2678,597	*
8c/L)	8A\]	16ff\LL	.
.	.	16cc\	.
(<8a/	4A\	16ccc\	.
.	.	16cc\JJ	.
8f/	.	16aa\LL	.
.	.	16cc\	.
8e-/J)	8ryy	16gg-X\	.
.	.	16b-\JJ	.
*clefF4	*	*	*
(8cL 8F\	2ryy	16ff\LL	.
.	.	16a\	.
8A\J	.	16ee-\	.
.	.	16g-X\JJ	.
4G-X\)	.	16cc\LL	.
.	.	16e-\	.
.	.	16b-\	.
.	.	16e-\JJ	.
*v	*v	*	*
=62	=62	=62
8F\	16a/LL	.
.	16cc/	.
8r	16g-X/	.
.	16a/JJ	.
!	!LO:TX:b:t=rall.	!
4r	16e-/LL	.
.	16g-/	.
.	16c/	.
.	16e-/JJ	.
16A\LL	2r	.
16c\	.	.
16A\	.	.
16F\JJ	.	.
16E-/LL	.	.
16C/	.	.
16AA/	.	.
16FF/JJ	.	.
=63	=63	=63
*^	*	*
*	*xywh-#9:263,1804,2678,597	*	*
!	!	!LO:TX:b:i:t=un poco più sostenuto con gran	!LO:HP:a
4rB	2BB-\	(2dd 2d/	<
2F/	.	.	.
.	2C\	2a 2e-/	.
[4F/	.	.	.
=64	=64	=64	=64
4F/]	2D\	2b- 2f/	.
2B-/	.	.	.
.	2E-\	2gg 2g\)	[
[4B-/	.	.	.
!!LO:LB:g=original
=65	=65	=65	=65
*	*	*^	*
*xywh-#9:254,2374,2701,615	*xywh-#9:254,2374,2701,615	*xywh-#9:254,2374,2701,615	*xywh-#9:254,2374,2701,615	*
!	!	!LO:TX:b:i:t=espressione	!	!LO:HP:a
4B-/]	2F\	(2..ff/	1b-	>
2d/	.	.	.	.
.	2G\	.	.	.
4B-/	.	.	.	.
.	.	8ee-/)	.	]
=66	=66	=66	=66	=66
4A/	2A\	(4.dd/	2f#X\	.
2d/	.	.	.	.
.	.	8cc/	.	.
.	2G\	4b-/)	4g\	.
4d/	.	4r	4ryy	.
*	*	*v	*v	*
=67	=67	=67	=67
4e-/	2E-\	(2gg 2g\	<
2B-/	.	.	.
.	2F\	2dd 2a-X\	.
[4B-/	.	.	.
=68	=68	=68	=68
4B-/]	2G\	2ee- 2g\	.
2B-/	.	.	.
.	2G-X\	2bb- 2b-\)	.
[4c/	.	.	[
=69	=69	=69	=69
*	*	*^	*
4c/]	2F\	(2cc 2aa\	2ryy	>
2f/	.	.	.	.
.	2F\	4.gg/	2b-\	.
[4e-/	.	.	.	.
.	.	8aa/	.	.
=70	=70	=70	=70	=70
4e-/]	[2F\	4.ff/	[2b-\	.
4d/	.	.	.	.
.	.	8gg/	.	.
4c/	2F\]	4.ee-/	4b-\]	.
4f/	.	.	4a\	]
.	.	8ff/)	.	.
*v	*v	*	*	*
*	*v	*v	*
!!LO:LB:g=original
=71	=71	=71
*xywh-#9:300,2998,2637,853	*xywh-#9:300,2998,2637,853	*
!	!LO:TX:b:i:t=risoluto	!
8FF#XL 8FFF#X\	8dd 8a/	mf
8d 8A 8F#X\	8r	.
8d 8A 8F#\	2ddd 2dd^\	.
8dJ 8A 8F#\	.	.
8dL 8A 8F#\	.	.
8d 8A 8F#\	.	.
8d 8A 8F#\	4aat\	.
8dJ 8A 8F#\	.	.
=72	=72	=72
8GGL 8GGG\	4bb-'\	.
8d 8B- 8G\	.	.
8d 8B- 8G\	4gg'\	.
8dJ 8B- 8G\	.	.
8dL 8B- 8G\	4dd'\	.
8d 8B- 8G\	.	.
8d 8B- 8G\	4b-'\	.
8dJ 8B- 8G\	.	.
=73	=73	=73
8BBnL 8BBBn\	8g/	.
8d 8G 8F\	8r	.
8d 8G 8F\	2ggg 2gg^\	.
8dJ 8G 8F\	.	.
8dL 8G 8F\	.	.
8d 8G 8F\	.	.
8d 8G 8F\	4dddt\	.
8dJ 8G 8F\	.	.
=74	=74	=74
*ped	*	*
8CL 8CC/	[2eee-\	.
!	!	!LO:HP:t=dimin.
8C/	.	>
8G/	.	.
8c/J	.	.
*Xped	*	*
8e-\	8eee-\L]	.
8r	8ccc\	.
4r	8aa\	.
.	8gg-X\J	.
!!LO:PB:g=original
=75	=75	=75
*xywh-#10:360,456,2710,665	*xywh-#10:360,456,2710,665	*
4r	8gg-X\L	.
.	8ff\J	.
!	!	!LO:HP:b=2
(4c 4A\	[4ccc^\	<
2d-X 2B-\)	8ccc\L]	[
!	!	!LO:HP:t=cres.
.	8gg-\	<
.	8qbb-/	.
.	8aa-X\	.
.	8gg-\J	.
=76	=76	=76
4r	8gg-X\L	.
.	8ff\J	.
!	!	!LO:HP:b=2
(4c 4A\	[4ccc^\	<
2d-X 2B-\)	8ccc\L]	[
.	8gg-\	.
.	8qbb-/	.
.	8aa-X\	.
.	8gg-\J	.
=77	=77	=77
*^	*	*^
*	*xywh-#10:360,456,2710,665	*	*	*
4r	2ryy	8gg-X\L	.	.
.	.	8ff\J	.	.
!	!	!	!LO:HP:t=dimin.	!LO:HP:b=2
8cL 8A\	.	[4ccc^\	<	<
8d-XJ 8B-\	.	.	.	.
!	!	!	!	!LO:HP:b=2
4e-/	2c\	8ccc\L]	.	[>
.	.	8aa-X\	.	.
4a-X/	.	8ggn\	.	.
.	.	8gg-X\J	.	]]
*	*	*	*v	*v
=78	=78	=78	=78
4d-X/	2D-X\	(2ff 2f\	]
2A-X/	.	.	.
.	2E-X\	2cc 2g-X\	.
[4A-/	.	.	.
=79	=79	=79	=79
4A-X/]	2F\	2dd-X 2a-X\	.
2d-X/	.	.	.
*	*	*Xbrackettup	*
*	*	*tuplet	*
!	!	!LO:TUP:a:problem:klamra łukowa	!
.	2G-X\	12r	.
.	.	12bb-\L	.
.	.	12aan\J	.
!	!	!LO:TUP:a:problem:klamra łukowa	!
[4g-X/	.	12bb-\L	.
.	.	12ccc\	.
.	.	12bb-\J	.
!!LO:LB:g=original
=80	=80	=80	=80
*	*^	*	*
*xywh-#10:360,1052,2715,637	*xywh-#10:360,1052,2715,637	*xywh-#10:360,1052,2715,637	*xywh-#10:360,1052,2715,637	*
!	!	!	!LO:TUP:a:problem:klamra łukowa	!
4g-X/]	2A-X\	4ryy	12r	.
!	!	!	!	!LO:HP:t=cres.
.	.	.	12aa-X\L	<
.	.	.	12gg\J	.
!	!	!	!LO:TUP:a:problem:klamra łukowa	!
2f/	.	4ryy	12aa-\L	.
.	.	.	12bb-\	.
.	.	.	12aa-\J	.
!	!	!	!LO:TUP:a:problem:klamra łukowa	!
.	2An\	4c/	12r	.
.	.	.	12gg-X\L	.
.	.	.	12ff\J	.
!	!	!	!LO:TUP:a:problem:klamra łukowa	!
[4e-/	.	4ryy	12gg-\L	.
.	.	.	12aa-\	.
.	.	.	12gg-\J	.
*	*v	*v	*	*
=81	=81	=81	=81
!	!	!LO:TUP:a:problem:klamra łukowa	!
4e-/]	2B-\	12r	.
.	.	12ff\L	.
.	.	12een\J	.
!	!	!LO:TUP:a:problem:klamra łukowa	!
4d-X/	.	12ff\L	.
.	.	12gg-X\	.
.	.	12ff\J	.
!	!	!LO:TUP:a:problem:klamra łukowa	!
4B-/	2G-X\	12r	.
.	.	12ee-X\L	.
.	.	12dd-X\J	.
!	!	!LO:TUP:a:problem:klamra łukowa	!
4en/	.	12cc\L	.
.	.	12dd-\	.
.	.	12b-\J)	.
=82	=82	=82	=82
*ped	*	*	*
8r	8ryy	[2ff\	pp
8FF/L	4.FF\	.	.
8BB-/	.	.	.
8D/J	.	.	.
*Xped	*	*	*
!LO:N:vis=2	!	!	!
8F/L	2F\	8ff\L]	.
8B-/	.	8dd\	.
8d/	.	8cc\	.
8f/J	.	8b-\J	.
=83	=83	=83	=83
*ped	*	*	*
8r	8ryy	[2gg\	.
8FF/L	4.FF\	.	.
8BBn/	.	.	.
8D/J	.	.	.
*Xped	*	*	*
!LO:N:vis=2	!	!	!
8F/L	2F\	8gg\L]	.
8Bn/	.	8dd\	.
8d/	.	8cc\	.
8f/J	.	8bn\J	.
!!LO:LB:g=original
=84	=84	=84	=84
*xywh-#10:355,1654,2715,523	*xywh-#10:355,1654,2715,523	*xywh-#10:355,1654,2715,523	*
*ped	*	*	*
!	!	!	!LO:HP:t=cres.
8r	8ryy	[2aa\	<
8FF/L	4.FF\	.	.
8C/	.	.	.
8E-/J	.	.	.
*Xped	*	*	*
!LO:N:vis=2	!	!	!
8A/L	2A\	8aa\L]	.
8c/	.	8ee-\	.
8e-/	.	8dd\	.
8a/J	.	8cc\J	.
=85	=85	=85	=85
8F#X 8FF#X/	4ryy	8eee- 8ee-\	.
8r	.	8r	.
(8AL 8F#\	4ryy	2.aa 2.a\	.
8B-J 8G\	.	.	.
8cL 8A/	8ryy	.	.
8e-/	4.F#\	.	.
8d/	.	.	.
8c/J)	.	.	.
=86	=86	=86	=86
!	!	!	!LO:HP:t=dimin.
8G 8GG\	8ryy	8bb- 8b-\	>
8r	8ryy	8r	.
(8B-L 8G\	4ryy	2.een 2.en/	.
8cJ 8A\	.	.	.
8B-L 8G/	8ryy	.	.
8d-X/	4.G\	.	.
8c/	.	.	.
8B-/J)	.	.	.
*v	*v	*	*
=87	=87	=87
4d 4B- 4F\	8ffL 8f\	.
.	16gg\L	.
.	16ff\JJ	.
4r	16dd/LL	.
.	16b-/	.
.	16f/	.
.	16d/JJ	.
4r	8B-/	.
.	8r	.
4F 4FF/	4a 4f 4e- 4c/	f
!!LO:LB:g=original
=88	=88	=88
*xywh-#10:345,2132,2747,519	*xywh-#10:345,2132,2747,519	*
!	!LO:TX:a:t=Tempo I.°	!
!	!LO:TX:a:i:t=brillante	!
8BB-\	8b-L 8f 8d 8B-/	.
8rDD	16D</L	.
.	16F</JJ	.
8rDD	16c</LL	.
.	16B-</	.
4D 4BB-^\	16En</	.
.	16F</JJ	.
.	16e-/LL	.
.	16d/	.
4BB- 4FF^/	16A/	.
.	16B-/JJ	.
.	16g/LL	.
.	16f/	.
[8FF [8DD^/	16c#X/	.
.	16d/JJ	.
=89	=89	=89
8FF] 8DD/]	16cc/LL	.
.	16b-/	.
4d 4B-^\	16en/	.
.	16f/JJ	.
.	16ee-\LL	.
.	16dd\	.
4B- 4F^\	16a\	.
.	16b-\JJ	.
.	16gg\LL	.
.	16ff\	.
4F 4D^\	16cc#X\	.
.	16dd\JJ	.
.	16ccc\LL	.
.	16bb-\	.
8D 8BB-^/	16ddd\	.
.	16bb-\JJ	.
=90	=90	=90
*^	*^	*
*	*xywh-#10:345,2132,2747,519	*	*xywh-#10:345,2132,2747,519	*
8C 8FF/	8ryy	8aa\	8ryy	.
*clefG2	*	*8va	*8va	*
16ee-/LL	[4.f\	16ggg/LL	[4.aa^\	.
16dd/JJ	.	16fff#X/JJ	.	.
16ee-/LL	.	16ggg/LL	.	.
16bn/	.	16ddd/	.	.
16dd/	.	16fffn/	.	.
16cc/JJ	.	16eee-/JJ	.	.
8a/	8f\]	8ccc/	8aa\]	.
16cc/LL	[4.f\	16eee-/LL	[4.ff^\	.
16b/JJ	.	16ddd/JJ	.	.
16cc/LL	.	16eee-/LL	.	.
16g#X/	.	16bbn/	.	.
16b-X/	.	16ddd/	.	.
16a/JJ	.	16ccc/JJ	.	.
*v	*v	*	*	*
*	*v	*v	*
*	*X8va	*
!!LO:LB:g=original
=91	=91	=91
*^	*^	*
*xywh-#10:335,2633,2747,564	*xywh-#10:335,2633,2747,564	*xywh-#10:335,2633,2747,564	*xywh-#10:335,2633,2747,564	*
8f/	8f\]	8aa/	8ff\]	.
*clefF4	*	*	*	*
16e-/LL	[4.F\	16gg/LL	[4.a\	.
16d/JJ	.	16ff#X/JJ	.	.
16e-/LL	.	16gg/LL	.	.
16Bn/	.	16dd/	.	.
16d/	.	16ffn/	.	.
16c/JJ	.	16ee-/JJ	.	.
8A/L	8F\]	8cc/L	8a\]	.
16c/L	8ryy	16ee-/L	8ryy	.
16A/JJ	.	16cc/JJ	.	.
16F/LL	4ryy	16a/LL	4ryy	.
16E-/	.	16f/	.	.
16C/	.	16e-/	.	.
16AA/JJ	.	16c/JJ	.	.
*v	*v	*	*	*
*	*v	*v	*
=92	=92	=92
8BB-\	8B-/L	.
8rGG	16D</L	.
.	16F</JJ	.
8rGG	16A</LL	.
.	16B-</	.
4D 4BB-^\	16En</	.
.	16F</JJ	.
.	16c#X/LL	.
.	16d/	.
4BB- 4FF^/	16A/	.
.	16B-/JJ	.
.	16en/LL	.
.	16f/	.
[8FF [8DD^/	16c#/	.
.	16d/JJ	.
=93	=93	=93
8FF] 8DD/]	16a/LL	.
.	16b-/	.
4d 4B-^\	16en/	.
.	16f/JJ	.
.	16cc#X\LL	.
.	16dd\	.
4B- 4F^\	16a\	.
.	16b-\JJ	.
.	16een\LL	.
.	16ff\	.
4F 4D^\	16cc#\	.
.	16dd\JJ	.
.	16aa\LL	.
.	16bb-\	.
8D 8BB-^/	16ddd\	.
.	16bb-\JJ	.
!!LO:LB:g=original
=94	=94	=94
*xywh-#10:442,3152,2633,646	*xywh-#10:442,3152,2633,646	*
8E-X 8FF#X/	8aa\	.
*clefG2	*8va	*
*^	*^	*
*	*xywh-#10:442,3152,2633,646	*	*xywh-#10:442,3152,2633,646	*
16cc^/LL	[4.f#X\	16eee-/LL	[4.aa^\	.
16bn/JJ	.	16ddd/JJ	.	.
16cc/LL	.	16eee-/LL	.	.
16g#X/	.	16bbn/	.	.
16b-X/	.	16ddd/	.	.
16a/JJ	.	16ccc/JJ	.	.
8f#/	8f#\]	8aa/	8aa\]	.
16a^/LL	[4.d\	16ccc/LL	[4.ff#X^\	.
16g#/JJ	.	16bb/JJ	.	.
16a/LL	.	16ccc/LL	.	.
16e#X/	.	16gg#X/	.	.
16f#/	.	16aa/	.	.
16e-X/JJ	.	16ggn/JJ	.	.
=95	=95	=95	=95	=95
8d/]	8ryy	8ff#X/]	8ryy	.
*v	*v	*	*	*
*	*v	*v	*
*clefF4	*X8va	*
*^	*^	*
16c/LL	[4.F#X^\	16ee-/LL	[4.a^\	.
16Bn/JJ	.	16dd/JJ	.	.
16c/LL	.	16ee-/LL	.	.
16G#X/	.	16bn/	.	.
16B-X/	.	16dd/	.	.
16A/JJ	.	16cc/JJ	.	.
8F#/L	8F#^\]	8a/L	8a^\]	.
16B-/L	8ryy	16cc/L	8ryy	.
16F#/JJ	.	16a/JJ	.	.
16E-/LL	4ryy	16f#X/LL	4ryy	.
16C/	.	16e-/	.	.
16AA/	.	16c/	.	.
16FF#X/JJ	.	16A/JJ	.	.
*v	*v	*	*	*
*	*v	*v	*
=96	=96	=96
8GG\	8G</L	.
8rDD	16C#X</L	.
.	16D</JJ	.
8rDD	16c</LL	.
.	16B-</	.
4D 4BB-^\	16F#X</	.
.	16G</JJ	.
.	16e-/LL	.
.	16d/	.
4BB- 4GG^/	16A/	.
.	16B-/JJ	.
.	16a/LL	.
.	16g/	.
[8GG [8DD^/	16c#X/	.
.	16d/JJ	.
!!LO:PB:g=original
=97	=97	=97
*xywh-#11:252,454,2620,612	*xywh-#11:252,454,2620,612	*
8GG] 8DD/]	16cc/LL	.
.	16b-/	.
4d 4B-^\	16f#X/	.
.	16g/JJ	.
.	16ee-\LL	.
.	16dd\	.
4B- 4G^\	16a\	.
.	16b-\JJ	.
.	16aa\LL	.
.	16gg\	.
4G 4D^\	16cc#X\	.
.	16dd\JJ	.
.	16ddd\LL	.
.	16bb-\	.
8D 8BB-^/	16aa\	.
.	16gg\JJ	.
=98	=98	=98
!	!LO:TX:t=P:problem:mixed beam	!
8F 8FF\	8bbnL 8aa-X 8dd\	.
8rGG	16D</L	.
.	16F</JJ	.
8rGG	16B-</LL	.
.	16Bn</	.
4D 4BBn^\	16F</	.
.	16A-X</JJ	.
.	16d-X/LL	.
.	16dn/	.
4BB 4AA-^/	16B/	.
.	16d/JJ	.
.	16g/LL	.
.	16a-X/	.
[8AA- [8FF^/	16d/	.
.	16f/JJ	.
=99	=99	=99
8AA-X] 8FFX/]	16b-X/LL	.
.	16bn/	.
4d 4Bn^\	16f/	.
.	16a-X/JJ	.
.	16dd-X\LL	.
.	16ddn\	.
4B 4A-X^\	16b\	.
.	16dd\JJ	.
.	16gg\LL	.
.	16aa-X\	.
4A- 4F^\	16dd\	.
.	16ff\JJ	.
.	16bb-X\LL	.
.	16bbn\	.
8BBn^ 8F\	16ff\	.
.	16ddd\JJ	.
!!LO:LB:g=original
=100	=100	=100
*^	*^	*
*xywh-#11:241,1034,2631,525	*xywh-#11:241,1034,2631,525	*xywh-#11:241,1034,2631,525	*xywh-#11:241,1034,2631,525	*
8E- 8C/	8ryy	8eee- 8aa-X 8ee-\	8ryy	.
*v	*v	*	*	*
*	*v	*v	*
*clefG2	*8va	*
*^	*^	*
*xywh-#11:241,1034,2631,525	*xywh-#11:241,1034,2631,525	*xywh-#11:241,1034,2631,525	*xywh-#11:241,1034,2631,525	*
16cc/LL	[4.e-\	16eee-/LL	[4.aa-\	pp
16bn/JJ	.	16ddd/JJ	.	.
16cc/LL	.	16eee-/LL	.	.
16a-X/	.	16ccc/	.	.
16dd-X/	.	16fff/	.	.
16cc/JJ	.	16eee-/JJ	.	.
8b/	8e-\]	8ddd-X/	8aa-\]	.
16b/LL	[4.e-\	16ddd-/LL	4.gg\	.
16an/JJ	.	16ccc/JJ	.	.
16b/LL	.	16ddd-/LL	.	.
16g/	.	16bb-/	.	.
16cc/	.	16eee-/	.	.
16b/JJ	.	16ddd-/JJ	.	.
=101	=101	=101	=101	=101
8a-X/	8e-\]	8ccc/	8aa-X\	.
16cc-X/LL	[4.e-\	16eee-/LL	[4.aa-\	.
16b-/JJ	.	16ddd/JJ	.	.
16cc-/LL	.	16eee-/LL	.	.
16a-X/	.	16ccc-X/	.	.
16dd-X/	.	16fff-X/	.	.
16cc-/JJ	.	16eee-/JJ	.	.
8b-/	8e-\]	8ddd-X/	8aa-\]	.
16b-/LL	[4.e-\	16ddd-/LL	4.gg\	.
16an/JJ	.	16cccn/JJ	.	.
16b-/LL	.	16ddd-/LL	.	.
16g/	.	16bb-/	.	.
16cc-/	.	16eee-/	.	.
16b-/JJ	.	16ddd-/JJ	.	.
!!LO:LB:g=original
=102	=102	=102	=102	=102
*xywh-#11:236,1532,2631,541	*xywh-#11:236,1532,2631,541	*xywh-#11:236,1532,2631,541	*xywh-#11:236,1532,2631,541	*
8a-X/	8e-\]	8ccc-X/	8aa-X\	.
16a-/LL	[4.c-X\	16ccc-/LL	[4.ff-X\	.
16gn/JJ	.	16bb-/JJ	.	.
16a-/LL	.	16ccc-/LL	.	.
16f-X/	.	16aa-/	.	.
16b--/	.	16ddd-X/	.	.
16a-/JJ	.	16ccc-/JJ	.	.
8g-X/	8c-\]	8bb--/	8ff-\]	.
16g-/LL	4.cn\	16bb--/LL	4.ee-\	.
16fn/JJ	.	16aa-/JJ	.	.
16g-/LL	.	16bb--/LL	.	.
16c/	.	16ee-/	.	.
16f-X/	.	16aa-/	.	.
16e-/JJ	.	16gg-X/JJ	.	.
*	*	*v	*v	*
=103	=103	=103	=103
8d-X/	8d-\	8ff-X\L	.
8r	8ryy	16fff-X\L	.
.	.	16eee-\JJ	.
!	!	!	!LO:HP:t=cres.
4r	4ryy	16fff-\LL	<
.	.	16ddd-X\	.
.	.	16aa-X\	.
.	.	16ff-\JJ	.
4an 4g-X 4e- 4cn/	4ryy	16r	.
.	.	16gg-X\LL	.
.	.	16ggg-X\	.
.	.	16fff-\JJ	.
4r	4ryy	16ggg-\LL	.
.	.	16eee-\	.
.	.	16ccc\	.
.	.	16gg-\JJ	.
*v	*v	*	*
=104	=104	=104
4b- 4g-X 4e- 4B-/	16r	.
.	16bb-\LL	.
.	16bbb-\	.
.	16aaa\JJ	.
4r	16bbb-\LL	.
.	16ggg-X\	.
.	16eee-\	.
.	16bb-\JJ	.
4cc 4f 4e- 4A/	16r	.
.	16eee-\LL	.
.	16eeee-\	.
.	16dddd\JJ	.
4r	16eeee-\LL	.
.	16cccc\	.
.	16aaa\	.
.	16eee-\JJ	.
*	*X8va	*
!!LO:LB:g=original
=105	=105	=105
*xywh-#11:230,2041,2691,547	*xywh-#11:230,2041,2691,547	*
1a 1d 1F#X	16r	.
.	16dd\LL	pp
.	16ddd\	.
.	16ccc#X\JJ	.
.	16cccn\LL	.
.	16bbn\	.
.	16bb-X\	.
.	16aa\JJ	.
.	16gg\LL	.
.	16ff#X\	.
.	16aa\	.
.	16gg\JJ	.
.	16ff#\LL	.
.	16ee-\	.
.	16dd\	.
.	16cc\JJ	.
*clefF4	*	*
=106	=106	=106
*^	*	*
*	*xywh-#11:230,2041,2691,547	*	*
1d 1Bn 1Fn	2a-X/	16cc\LL	.
.	.	16bn\	.
.	.	16a#X\	.
.	.	16b\JJ	.
!	!	!	!LO:HP:t=cres.
.	.	16ee-\LL	<
.	.	16dd\	.
.	.	16aa-X\	.
.	.	16gg\JJ	.
.	2g/	16ccc\LL	.
.	.	16bbn\	.
.	.	16fff\	.
.	.	16ddd\JJ	.
.	.	16bb\LL	.
.	.	16gg\	.
.	.	16ff\	.
.	.	16dd\JJ	.
*v	*v	*	*
=107	=107	=107
2g 2c 2E-\	16dd\LL	.
!	!	!LO:DY:t=sempre più forte
.	16cc\	f
.	16bn\	.
.	16cc\JJ	.
.	16ee-\LL	.
.	16cc\	.
.	16gg\	.
.	16ee-\JJ	.
2g 2d-X 2B- 2En\	16aa\LL	.
.	16gg\	.
.	16ff#X\	.
.	16gg\JJ	.
.	16bb-\LL	.
.	16gg\	.
.	16ddd-X\	.
.	16bb-\JJ	.
!!LO:LB:g=original
=108	=108	=108
*xywh-#11:225,2550,2707,568	*xywh-#11:225,2550,2707,568	*
2f 2d 2B- 2F\	16ccc\LL	.
.	16bb-\	.
.	16aa\	.
.	16bb-\JJ	.
.	16ddd\LL	.
.	16bb-\	.
.	16fff\	.
.	16ddd\JJ	.
*	*8va	*
2en 2d-X 2B- 2G-X\	16fff\LL	.
.	16eeen\	.
.	16ddd#X\	.
.	16eee\JJ	.
.	16bbb-\LL	.
.	16eee\	.
.	16dddd-X\	.
.	16bbb-\JJ	.
=109	=109	=109
8f 8d 8B- 8F\	8ddddn\L	.
*clefG2	*	*
16ff\LL	16ffffL 16fff\	ff
16ee-\JJ	16eeee-JJ 16eee-\	.
16dd\LL	16ddddLL 16ddd\	.
16cc\	16cccc 16ccc\	.
16b-\	16bbb- 16bb-\	.
16a\JJ	16aaaJJ 16aa\	.
*clefF4	*	*
*	*X8va	*
16g\LL	16gggLL 16gg\	.
16f\	16fff 16ff\	.
16e-\	16eee- 16ee-\	.
16d\JJ	16dddJJ 16dd\	.
16c\LL	16cccLL 16cc\	.
16B-\	16bb- 16b-\	.
16A\	16aa 16a\	.
16G\JJ	16ggJJ 16g\	.
=110	=110	=110
8F\	8ff 8f\	.
8r	8r	.
4G 4GG/	4bb- 4gg 4dd 4b-\	.
4C 4CC/	4eee- 4bb- 4gg 4ee-\	.
4F 4FF/	4aa 4ee- 4cc 4a\	.
=111	=111	=111
!!LO:TX:a:B:t=1.a
*>A1	*>A1	*>A1
!	!LO:TX:b:B:i:t=Grave	!
8BB- 8BBB-/	8bb- 8ff 8dd 8b-\	.
8r	8r	.
4E- 4EE-/	4g 4e- 4B- 4G/	p
4AA 4AAA/	4a 4e- 4c 4A/	.
4D 4DD/	4f#X 4d 4c 4A/	.
!!LO:LB:g=original
=112:|!	=112:|!	=112:|!
!!LO:TX:a:B:t=2.a
*xywh-#11:219,3075,2702,716	*xywh-#11:219,3075,2702,716	*
*>A2	*>A2	*>A2
4BB- 4BBB-/	2bb- 2ff 2dd 2b-\	f
4r	.	.
2r	2ddd 2dd\	.
=113	=113	=113
2B- 2BB-\	2ff 2dd 2b- 2f\	.
2d 2D\	2r	.
=114	=114	=114
*>B	*>B	*>B
2F 2FF/	2dd 2d\	.
2r	2ff 2f\	.
=115	=115	=115
2D 2DD/	2b- 2f 2B-/	.
2F 2FF/	8r	.
.	8b-\L	p
.	8qdd/	.
.	8cc\	.
.	8b-\J	.
=116	=116	=116
!	!	!LO:HP:b=2
8BB-L 8BBB-\	2bb-\	<
(8d 8B-\	.	[[
!	!	!LO:HP:b=2
8e- 8c\	.	>
8enJ 8c#X\	.	.
8f 8d\)	8r	]
8r	8bb-\L	.
.	8qddd/	.
4r	8ccc\	.
.	8bb-\J	.
=117	=117	=117
!	!	!LO:HP:b=2
8BB-\L	2fff 2ff\	<
(8f 8d\	.	[[
!	!	!LO:HP:b=2
8g-X 8e-\	.	>
8gnJ 8en\	.	.
8a-X 8f\)	8r	]
8r	8ddd\L	.
.	8qfff/	.
4r	8eee-\	.
.	8ddd\J	.
!!LO:PB:g=original
=118	=118	=118
*xywh-#12:424,519,2729,729	*xywh-#12:424,519,2729,729	*
4r	2.aaa-X 2.aa-X\	f
4BBn 4BBBn/	.	.
[2F [2FF/	.	.
.	4ddd 4dd\	.
=119	=119	=119
4F] 4FF/]	2.fff 2.ff\	.
4D 4DD/	.	.
2A-X 2AA-X/	.	.
.	4bbn 4bn\	.
=120	=120	=120
4F 4FF/	2.ddd 2.dd\	.
8.A-XL 8.AA-X/	.	.
16GJk 16GG/	.	.
8.FL 8.FF/	.	.
16E-Jk 16EE-/	.	.
8.DL 8.DD/	8.ffL 8.f\	.
16CJk 16CC/	16ggJk 16g\	.
=121	=121	=121
4BBn 4BBBn/	2.aa-X 2.a-X\	.
8.FL 8.FF/	.	.
16E-Jk 16EE-/	.	.
8.DL 8.DD/	.	.
16CJk 16CC/	.	.
4BB 4BBB/	8.ggL 8.g\	.
.	16ffJk 16f\	.
=122	=122	=122
12CL 12CC\	2ee- 2e-\	mf
12G 12GG\	.	.
12AJ 12AA\	.	.
12BnL 12BBn\	.	.
12c 12C\	.	.
12dJ 12D\	.	.
12e-L 12E-\	2gg 2g\	.
12d 12D\	.	.
12cJ 12C\	.	.
12BnL 12BBn\	.	.
12d 12D\	.	.
12cJ 12C\	.	.
!!LO:LB:g=original
=123	=123	=123
*xywh-#12:412,1213,2741,653	*xywh-#12:412,1213,2741,653	*
*	*Xtuplet	*
2E- 2EE-/	12ccL 12c\	.
.	12gg 12g\	.
.	12aaJ 12a\	.
.	12bbnL 12bn\	.
.	12ccc 12cc\	.
.	12dddJ 12dd\	.
[2G [2GG/	12eee-L 12ee-\	.
.	12ddd 12dd\	.
.	12cccJ 12cc\	.
.	12bbL 12b\	.
.	12ddd 12dd\	.
.	12cccJ 12cc\	.
=124	=124	=124
12G]L 12GG/]	2aa-X 2a-X\	.
12C 12CC/	.	.
12DJ 12DD/	.	.
12EnL 12EEn/	.	.
12F 12FF/	.	.
12GJ 12GG/	.	.
12B-XL 12BB-X/	[2ccc [2cc\	.
12A 12AA/	.	.
12GJ 12GG/	.	.
12EL 12EE/	.	.
12G 12GG/	.	.
12FJ 12FF/	.	.
=125	=125	=125
!	!LO:TX:t=P:problem:dynamics with extension lines	!LO:HP:t=crescendo-poco-a-poco
2A-X 2AA-X\	12ccc]L 12cc\]	<
.	12ccc 12cc\	.
.	12dddJ 12dd\	.
.	12eeenL 12een\	.
.	12fff 12ff\	.
.	12gggJ 12gg\	.
[2c [2C\	12aaa-XL 12aa-X\	.
.	12ggg 12gg\	.
.	12fffJ 12ff\	.
.	12eeeL 12ee\	.
.	12ggg 12gg\	.
.	12fffJ 12ff\	.
=126	=126	=126
12c]L 12C\]	2ddd-X 2dd-X\	.
12F 12FF\	.	.
12GJ 12GG\	.	.
12AnL 12AAn\	.	.
12B- 12BB-\	.	.
12cJ 12C\	.	.
12d-XL 12D-X\	[2fff [2ff\	.
12c 12C\	.	.
12B-J 12BB-\	.	.
12AL 12AA\	.	.
12c 12C\	.	.
12B-J 12BB-\	.	.
!!LO:LB:g=original
=127	=127	=127
*xywh-#12:400,1825,2765,658	*xywh-#12:400,1825,2765,658	*
2G 2GG\	12fff]L 12ff\]	.
.	12b- 12B-\	.
.	12dd-XJ 12d-X\	.
.	12ffL 12f\	.
.	12bb- 12b-\	.
.	12aa-XJ 12a-X\	.
2B- 2BB-\	12ggL 12g\	.
.	12ddd-X 12dd-\	.
.	12cccJ 12cc\	.
.	12bb-L 12b-\	.
.	12gg 12g\	.
.	12ffJ 12f\	.
=128	=128	=128
*	*^	*
*	*	*xywh-#12:400,1825,2765,658	*
16CC/LL	8.eenL 8.en\	2ryy	p
16BBBn/	.	.	.
16CC/	.	.	.
16EEn/JJ	16ggJk 16g\	.	.
16GG/LL	8cc 8c/	.	.
16FF#X/	.	.	.
16GG/	8r	.	.
16C/JJ	.	.	.
8.En\L	16c/LL	4ryy	.
.	16Bn/	.	.
.	16c/	.	.
16GJk 16GG\	16e/JJ	.	.
8C 8CC/	16g\LL	8ryy	.
.	16c\JJ	.	.
8r	(16cc/LL	8g^\	.
.	16b-/JJ	.	.
=129	=129	=129	=129
16FF/LL	8.a-X/L)	4g [4c\	.
16EEn/	.	.	.
16FF/	.	.	.
16AA-X/JJ	16cc/Jk	.	.
16C/LL	8ryy	8f 8c\]	.
16BBn/	.	.	.
16C/	8r	8ryy	.
16F/JJ	.	.	.
8.A-X\L	16f/LL	4ryy	.
.	16en/	.	.
.	16f/	.	.
16cJk 16C\	16a-/JJ	.	.
8F 8FF/	16cc\LL	8ryy	.
.	16f\JJ	.	.
8r	16ff/LL	8cc^\	.
!	!LO:SIC:v:s=16een/JJ	!	!
.	16ee-/JJ	.	.
!!LO:LB:g=original
=130	=130	=130	=130
*xywh-#12:390,2435,2765,629	*xywh-#12:390,2435,2765,629	*xywh-#12:390,2435,2765,629	*
16BBB-/LL	8.dd-X/L	4cc [4f\	.
16AAAn/	.	.	.
16BBB-/	.	.	.
16DD-X/JJ	16ff/Jk	.	.
16FF/LL	8ryy	8b- 8f\]	.
16EEn/	.	.	.
16FF/	8r	8ryy	.
16BB-/JJ	.	.	.
8.D-X/L	16b-\LL	4ryy	.
.	16an\	.	.
.	16b-\	.	.
16FJk 16FF/	16dd-\JJ	.	.
8BB- 8BBB-/	16ff\LL	8ryy	.
.	16b-\JJ	.	.
8r	16bb-/LL	8ff^\	.
.	16aa-X/JJ	.	.
=131	=131	=131	=131
16EEn/LL	8.gg/L	4ff [4b-\	.
16DD#X/	.	.	.
16EE/	.	.	.
16GG/JJ	16bb-/Jk	.	.
16BB-/LL	8ryy	8een 8b-\]	.
16AAn/	.	.	.
16BB-/	8r	8ryy	.
16D-X/JJ	.	.	.
8.En/L	16cc\LL	4ryy	.
.	16bn\	.	.
.	16cc\	.	.
16GJk 16GG/	16ee\JJ	.	.
8C 8CC/	16gg\LL	8ryy	.
.	16cc\JJ	.	.
8r	16ccc/LL	8gg^\	.
.	16bb-/JJ	.	.
*	*v	*v	*
=132	=132	=132
*ped	*	*
4d-X: 4A-X: 4F: 4D-X:\	8aa-X 8ff\	ff
.	8r	.
!	!LO:TX:b:i:t=strepitoso	!
4f: 4d-: 4A-: 4F:\	4ddd-X: 4aa-: 4ff: 4dd-X:\	.
4A-: 4F: 4D-: 4AA-X:\	4fff: 4ddd-: 4aa-: 4ff:\	.
4d-: 4A-: 4F: 4D-:\	4aa-: 4ff: 4dd-: 4a-X:\	.
=133	=133	=133
4F: 4D-X: 4AA-X: 4FF:/	4ddd-X: 4aa-X: 4ff: 4dd-X:\	.
4A-X: 4F: 4D-: 4AA-:\	4ff: 4dd-: 4a-X: 4f:\	.
4D-: 4AA-: 4FF-X: 4DD:/	4aa-: 4ff: 4dd-: 4a-:\	.
4F: 4D-: 4AA-: 4FF-:/	4dd-: 4a-: 4f: 4d-X:/	.
*Xped	*	*
!!LO:LB:g=original
=134	=134	=134
*	*^	*
*xywh-#12:379,3041,2782,788	*xywh-#12:379,3041,2782,788	*xywh-#12:379,3041,2782,788	*
8G-X 8GG-X\	8ff: 8dd-X: 8b-: 8f:\	8ryy	p
*clefG2	*	*	*
16b-\LL	8ryy	8r	.
16a\JJ	.	.	.
16b-/LL	8.r	4ryy	.
16a-X/	.	.	.
16g-X/	.	.	.
16f/JJ	16ddn/	.	.
!	!	!	!LO:HP:t=cres.
16g-/LL	8.ee-/L	4b-\	<
16f/	.	.	.
16e-/	.	.	.
16d/JJ	16ff/Jk	.	.
*clefF4	*	*	*
16e-\LL	8ryy	4gg-X [4ee-\	.
16d-X\	.	.	.
16c\	16eee-/LL	.	.
16B-\JJ	16ddd-X/JJ	.	.
*	*v	*v	*
=135	=135	=135
*^	*	*
*	*xywh-#12:379,3041,2782,788	*	*
8A-X\	4ryy	8cccL 8gg-X 8ee-\]	<
8r	.	16ggg-X\L	.
.	.	16fff\JJ	.
8.E-/L	4AA-X\	16ggg-\LL	.
.	.	16fff\	.
.	.	16eee-\	.
16F/Jk	.	16ddd\JJ	.
8.G-X\L	2ryy	16eee-\LL	.
.	.	16ddd-X\	.
.	.	16ccc\	.
16A-\Jk	.	16bb-\JJ	.
8.B-\L	.	16aa\LL	.
.	.	16gg-X\	.
.	.	16ff\	.
16c\Jk	.	16ee-X\JJ	[[
*v	*v	*	*
=136	=136	=136
*ped	*	*
4c#X: 4G#X: 4En: 4C#X:\	8ff-X\	ff
.	8r	.
4en 4c# 4G# 4E\	4ccc#X: 4gg#X: 4een: 4cc#X:\	.
4G# 4E 4C# 4GG#X\	4eeen: 4ccc#: 4gg#: 4ee:\	.
4c# 4G# 4E 4C#\	4gg#: 4ee: 4cc#: 4g#X:\	.
=137	=137	=137
4En: 4C#X: 4GG#X: 4EEn:/	4ccc#X: 4gg#X: 4een: 4cc#X:\	.
4G#X: 4E: 4C#: 4GG#:\	4ee: 4cc#: 4g#X: 4en:\	.
4C#: 4GG#: 4EE: 4CC#X:/	4gg#: 4ee: 4cc#: 4g#:\	.
4E: 4C#: 4GG#: 4EE:/	4cc#: 4g#: 4e: 4c#X:/	.
*Xped	*	*
!!LO:PB:g=original
=138	=138	=138
*	*^	*
*xywh-#13:209,500,2741,709	*xywh-#13:209,500,2741,709	*xywh-#13:209,500,2741,709	*
8F#X 8FF#X/	8een: 8cc#X: 8a: 8en:\	2ryy	.
*clefG2	*	*	*
16cc#X\LL	8r	.	p
16b#X\JJ	.	.	.
16cc#/LL	8.r	.	.
16bn/	.	.	.
16a/	.	.	.
16g#X/JJ	16ee#X/	.	.
!	!	!	!LO:HP:t=cres.
16a/LL	8.ff#X/L	4cc#\	<
16g#X/	.	.	.
16f#X/	.	.	.
16e#X/JJ	16gg#X/Jk	.	.
*	*v	*v	*
*	*^	*
*	*	*xywh-#13:209,500,2741,709	*
*	*	*8va	*
!	!	!LO:TX:t=P:problem:łuk zamiast ligatury	!
!	!	!LO:SIC:v:n=2:s=4ff#\	!
16f#/LL	8r	([4aa 4ff\	.
16en/	.	.	.
16d#X/	16fff#X/LL	.	.
16c#X/JJ	16eeen/JJ	.	.
*	*v	*v	*
=139	=139	=139
*^	*	*
*	*xywh-#13:209,500,2741,709	*	*
8Bn/	4ryy	8ddd#X 8aa] 8ff#X\)	.
8r	.	16aaa\LL	.
.	.	16ggg#X\JJ	.
*clefF4	*	*	*
8.F#X/L	4BBn\	16aaa\LL	.
.	.	16ggg#\	.
.	.	16fff#X\	.
16G#X/Jk	.	16eee#X\JJ	.
!	!	!	!LO:HP:t=dimin.
8.A\L	2ryy	16fff#\LL	>
.	.	16eeen\	.
.	.	16ddd#X\	.
16Bn\Jk	.	16ccc#X\JJ	.
*	*	*X8va	*
8.c#X\L	.	16bbn\LL	.
.	.	16aa\	.
.	.	16gg#X\	.
16d#X\Jk	.	16ff#X\JJ	.
*v	*v	*	*
=140	=140	=140
16en\LL	2gg#X 2g#X^^\	p <
16f#X\	.	.
16d#X\	.	.
16e\JJ	.	.
16c#X\LL	.	.
16d#\	.	.
16Bn\	.	.
16c#\JJ	.	.
16An\LL	2ccc#X 2cc#X^^\	[>
16c#\	.	.
16G#X\	.	.
16c#\JJ	.	.
16F#X\LL	.	.
16c#\	.	.
16En\	.	.
16c#\JJ	.	]]
!!LO:LB:g=original
=141	=141	=141
*xywh-#13:199,1181,2741,665	*xywh-#13:199,1181,2741,665	*
16d#X\LL	2ff#X 2f#X^^\	.
16en\	.	.
16c#X\	.	.
16d#\JJ	.	.
16Bn\LL	.	.
16c#\	.	.
16A\	.	.
16B\JJ	.	.
16G#X\LL	2bbn 2bn^^\	.
16B\	.	.
16F#X\	.	.
16B\JJ	.	.
16En\LL	.	.
16B\	.	.
16D#X\	.	.
16B\JJ	.	.
=142	=142	=142
16c#X\LL	2een 2en^^\	.
16d#X\	.	.
16Bn\	.	.
16c#\JJ	.	.
16An\LL	.	.
16B\	.	.
16G#X\	.	.
16A\JJ	.	.
16F#X\LL	2aan 2an^^\	.
16A\	.	.
16En\	.	.
16A\JJ	.	.
16D#X\LL	.	.
16A\	.	.
16C#X\	.	.
16A\JJ	.	.
=143	=143	=143
*^	*	*
*	*xywh-#13:199,1181,2741,665	*	*
8GG#X/	8ryy	16ff#XLL 16dd#X^\	<
.	.	16g#X\	.
*ped	*	*	*
8B#X/L	4.G#\	16dd#\	.
.	.	16ff#\JJ	.
8f#X/	.	16cc##X\LL	[>
.	.	16aa\	.
8B#/J	.	16dd#\	]]
.	.	16gg#X\JJ	.
8GG#/	8ryy	16ff#LL 16dd#^\	<
.	.	16g#\	.
8B#/L	4.G#\	16dd#\	.
.	.	16ff#\JJ	.
8f#/	.	16cc##\LL	[>
.	.	16aa\	.
*Xped	*	*	*
8B#/J	.	16dd#\	]]
.	.	16gg#\JJ	.
!!LO:LB:g=original
=144	=144	=144	=144
*xywh-#13:194,1822,2761,670	*xywh-#13:194,1822,2761,670	*xywh-#13:194,1822,2761,670	*
8C#X/	8ryy	16eenLL 16cc#X^\	<
.	.	16g#X\	.
*ped	*	*	*
8c#X/L	4.G#X\	16cc#\	.
.	.	16ee\JJ	.
8f#X/	.	16b#X\LL	[ >
.	.	16aa\	.
8en/J	.	16cc#\	.
.	.	16gg#X\JJ	]
8C#/	8ryy	16eeLL 16cc#\	<
.	.	16g#\	.
8c#/L	4.G#\	16cc#\	.
.	.	16ee\JJ	.
8f#/	.	16b#\LL	[ >
.	.	16aa\	.
*Xped	*	*	*
8e/J	.	16cc#\	]]
.	.	16gg#\JJ	.
=145	=145	=145	=145
8BBn/	8ryy	16ff#XLL 16dd#X^\	<
.	.	16b-\	.
*ped	*	*	*
8d#X/L	4.Bn\	16ff#\	.
.	.	16aa\JJ	.
8a/	.	16dd#X\LL	[>
.	.	16cccn\	.
8d#/J	.	16ff#\	.
.	.	16bbn\JJ	]
8BB/	8ryy	16aaLL 16ff#^\	<
.	.	16b-\	.
8d#/L	4.B\	16ff#\	.
.	.	16aa\JJ	.
8a/	.	16dd#\LL	[>
.	.	16ccc\	.
*Xped	*	*	*
8d#/J	.	16ff#\	]]
.	.	16bb\JJ	.
=146	=146	=146	=146
*ped	*	*	*
8En\	8ryy	16ggnLL 16een\	<
.	.	16bn\	.
8en/L	4.Bn\	16ee\	.
.	.	16gg\JJ	.
8a/	.	16dd#X\LL	[>
.	.	16ccc\	.
8gn/J	.	16ee\	.
.	.	16bbn\JJ	]
8E\	8ryy	16ggLL 16ee\	<
.	.	16b\	.
8e/L	4.B\	16ee\	.
.	.	16gg\JJ	.
8a/	.	16dd#\LL	[>
.	.	16ccc\	.
*Xped	*	*	*
8g/J	.	16ee\	]]
.	.	16bb\JJ	.
*v	*v	*	*
!!LO:LB:g=original
=147	=147	=147
*	*	*^
*xywh-#13:227,2500,2707,607	*xywh-#13:227,2500,2707,607	*	*
8D/	16aaLL 16ff#X^\	<	.
.	16ddn\	.	.
*clefG2	*	*	*
*ped	*	*	*
8f#XL 8d/	16ff#\	.	.
.	16aa\JJ	[	.
8a/J	16ff#\LL	>	.
.	16eee-X\	.	.
*Xped	*	*	*
.	.	.	.
8r	16aa\	.	.
.	16ddd\JJ	]	.
*clefF4	*	*	*
8C/	16cccLL 16aa\	<	.
.	16ee-X\	.	.
*clefG2	*	*	*
*ped	*	*	*
8e-XL 8c/	16aa\	.	.
.	16eee-\JJ	.	.
*	*8va	*	*
!	!	!	!LO:HP:t=cres.
8a/J	16ccc\LL	[>	<
.	16aaa\	.	.
*Xped	*	*	*
.	.	.	.
8r	16bb-\	.	.
.	16ggg\JJ	]	.
*clefF4	*	*	*
*	*	*v	*v
=148	=148	=148
*ped	*	*
8AA/	16fff#XLL 16ccc\	<
.	16aa\	.
*clefG2	*	*
8cL 8A/	16eee-X\	.
.	16aaa\JJ	.
8a/J	16ccc\LL	[ >
.	16cccc\	.
*Xped	*	*
.	.	.
8r	16ccc\	.
.	16bbb-\JJ	]
*clefF4	*	*
*ped	*	*
8EE-X/	16aaa\LL	<
.	16ccc\	.
*clefG2	*	*
8e-/L	16ggg\	.
.	16cccc\JJ	.
8ccJ 8g/	16eeee-\LL	[ >
.	16aaa\	.
*Xped	*	*
.	.	.
8r	16cccc\	]]
.	16ggg\JJ	.
*	*X8va	*
*clefF4	*	*
=149	=149	=149
8D 8DD/	8fff#X\	.
8r	8r	.
*clefG2	*	*
4r	[4dd\	p
2b- 2g/	8dd\L]	.
.	8ee-X\	.
.	8qgg/	.
.	8ffn\	.
.	[8ee-\J	.
=150	=150	=150
2a 2f#X/	8ee-\L]	.
.	8dd\J	.
.	[4aa\	.
2b- 2g/	8aa\L]	.
.	8ee-\	.
.	8qgg/	.
.	8ff\	.
.	[8ee-\J	.
!!LO:LB:g=original
=155	=155	=155
*xywh-#13:222,3078,2717,734	*xywh-#13:222,3078,2717,734	*
2a 2f#X/	8ee-\L]	.
.	8dd\J	.
.	4aa\	.
!	!LO:TX:t=P:problem:dynamics with extension lines	!
!	!LO:TX:b:i:t=rall...poco a poco	!
2a-X 2fn/	8r	.
.	8dd\L	.
.	8qff/	.
.	8ee-\	.
.	[8dd\J	.
=156	=156	=156
[2g 2e-/	8dd\L]	.
.	8cc\J	.
.	[4gg\	.
2g] 2d/	8gg\L]	.
.	8b-\J	.
.	[4gg\	.
=157	=157	=157
1a-X 1g 1c	8gg\L]	pp
.	(16dd\L	.
.	16ee-\JJ)	.
.	(16gg\LL	.
.	16aa-X\)	.
.	(16bbn\	.
.	16ccc\JJ)	.
*	*8va	*
.	(16ddd\LL	.
.	16eee-\)	.
.	(16ggg\	.
.	16aaa-X\JJ)	.
.	(16bbbn\LL	.
.	16cccc\)	.
.	(16dddd\	.
.	16eeee-\JJ)	.
*	*X8va	*
*clefF4	*	*
=158	=158	=158
8r	8ff#X 8cc 8a\	.
*ped	*	*
(16d\LL	8r	.
16e-\JJ)	.	.
(16Bn\LL	4r	.
16c\)	.	.
(16G#X\	.	.
16A\JJ)	.	.
(16E#X\LL	2r	.
16F#X\)	.	.
(16C#X\	.	.
16D\JJ)	.	.
(16BBn/LL	.	.
*Xped	*	*
16Cn/)	.	.
(16AA/	.	.
16FF#X/JJ)	.	.
!!LO:PB:g=original
=159	=159	=159
*xywh-#14:409,509,2730,753	*xywh-#14:409,509,2730,753	*
!	!LO:TX:a:B:t=a tempo.	!
2G 2GG\	2gg 2g\	ff
2B- 2BB-\	2bb- 2b-\	.
=160	=160	=160
[2D 2DD/	2dd 2d/	.
8D] 8DD/	8r	.
8r	8dd\L	p
.	8qff/	.
4r	8ee-\	.
.	8dd\J	.
=161	=161	=161
!	!LO:TX:b:i:t=espressivo	!
8r	([2ddd\	.
(8B-L 8G\	.	.
8A 8F#X\	.	.
8B-J 8G\	.	.
8gL 8B-\	8ddd\L]	.
8B- 8G\	8bb- 8dd\	.
8c 8A\	8aa 8ff#X\	.
8dJ 8B-\)	8gg\J)	.
=162	=162	=162
*	*^	*
*	*	*xywh-#14:409,509,2730,753	*
[2g [2c\	4.ff/	[2cc\	>
.	8een/	.	.
4g] 4c\]	4ee-X/	4cc\]	]
4r	4r	4ryy	.
*	*v	*v	*
=163	=163	=163
2e- 2E-\	2eee- 2ee-\	ff
2g 2G\	2ggg 2gg\	.
=164	=164	=164
!	!	!LO:HP:b=2
(8cL 8C\	2ccc 2cc\	p<
8e- 8c\	.	.
8g 8e-\	.	.
!	!	!LO:HP:b=2
8fJ 8d\	.	[>
8e- 8c\)	8r	]
8r	(16ee-\LL	.
.	16dd\JJ	.
4r	16ee-\LL	.
.	16cc\	.
.	16a\	.
.	16g\JJ)	.
!!LO:LB:g=original
=165	=165	=165
*^	*	*
*xywh-#14:403,1232,2718,635	*xywh-#14:403,1232,2718,635	*xywh-#14:403,1232,2718,635	*
8r	8ryy	8f#X/	.
8ryy	8A\ 8C	8r	.
!	!	!	!LO:HP:b=2
[4e-/	8A\L	[4cc\	<
!	!	!	!LO:HP:b=2
.	8G\J	.	[>
8e-/]	8F#X\	8cc\L]	]
8r	8ryy	(16cc\L	.
.	.	16bn\JJ	.
4r	4ryy	16cc\LL	.
.	.	16a\	.
.	.	16f#\	.
.	.	16e-\JJ)	.
*v	*v	*	*
=166	=166	=166
8r	2d/	.
!	!	!LO:HP:b=2
(8F#XL 8AA\	.	<
8A 8C\	.	.
!	!	!LO:HP:b=2
8GJ 8BB-\	.	[>
8F# 8AA\)	8r	]
8r	(16e-/LL	.
.	16d/JJ	.
4r	16c#X/LL	.
.	16d/	.
.	16A/	.
.	16d/JJ)	.
=167	=167	=167
8r	16Bn/LL	.
.	16d/	.
!	!	!LO:HP:t=cres.
[4.G [4.D [4.BBn [4.FF^/	16f#X/	<
.	16g/JJ	.
.	16bn/LL	.
.	16f#/	.
.	16g/	.
.	16c#X/JJ	.
8G] 8D] 8BB] 8FF/]	16d/LL	.
.	16g/	.
[4.D [4.BB [4.GG [4.DD^/	16a#X/	.
.	16b/JJ	.
.	16dd\LL	.
.	16a#\	.
.	16b\	.
.	16f#\JJ	.
!!LO:LB:g=original
=168	=168	=168
*xywh-#14:397,1833,2736,682	*xywh-#14:397,1833,2736,682	*
8D] 8BBnX] 8GG] 8DD/])	16g\LL	.
.	16bn\	.
[4.BB [4.GG [4.DD [4.BBBn^/	16dd\	.
.	16ff#X\JJ	.
.	16gg\LL	.
.	16cc#X\	.
.	16dd\	.
.	16a#X\JJ	.
8BB] 8GG] 8DD] 8BBB/]	16b\LL	.
.	16dd\	.
4.GG 4.DD 4.BBB 4.FFF^/	16ff#\	.
.	16gg\JJ	.
.	16bbn\LL	.
.	16ff#\	.
.	16gg\	.
.	16bb\JJ	.
=169	=169	=169
8EE- 8EEE-/	8ccc\L	.
*	*8va	*
8r	16eeee-\L	ff
.	16fff#X\JJ	.
2C 2GG 2EE- 2CC/	16ggg\LL	.
.	16cccc\	.
.	16eee-\	.
.	16ggg\JJ	.
.	16bbn\LL	.
.	16ccc\	.
.	16eee-\	.
.	16ff#X\JJ	.
[4E- [4C [4GG [4EE-/	16gg/LL	.
.	16ccc/	.
.	16ee-/	.
.	16gg/JJ	.
*	*X8va	*
=170	=170	=170
4E-] 4C] 4GG] 4EE-/]	16bn\LL	.
.	16cc\	.
.	16ee-\	.
.	16f#X\JJ	.
2G 2E- 2C 2GG/	16g/LL	.
.	16cc/	.
.	16e-/	.
.	16g/JJ	.
.	16Bn/LL	.
.	16c/	.
.	16e-/	.
.	16F#X/JJ	.
4E- 4C 4GG 4EE-/	16G/LL	.
.	16c/	.
.	16e-/	.
.	16g/JJ	.
!!LO:LB:g=original
=171	=171	=171
*xywh-#14:390,2477,2760,629	*xywh-#14:390,2477,2760,629	*
*ped	*	*
(8CL 8CC/	2a-X 2e- 2A-X/	pp <
8AA-X/	.	.
8C/	.	.
8E-/J	.	.
8A-X\L	2aa-X 2cc 2a-\	.
8c\	.	.
8f\	.	.
*Xped	*	*
8e-\J)	.	.
=172	=172	=172
*	*^	*
*	*	*xywh-#14:390,2477,2760,629	*
(8d-X\L	2.aa-X/	4.b-\	.
8D-X\	.	.	.
8d-\	.	.	.
8c\J	.	8cc\	.
8B-\L	.	8dd-X\L	.
8c\	.	8ee-\J	.
8d-\	8ff/L	4b-\	.
8f\J)	8dd-X/J	.	[
=173	=173	=173	=173
(4.e-\	4cc/	2.g\	>
.	4b-/	.	.
8d-X\	.	.	.
8B-\L	4ff/	.	.
8d-\	.	.	.
8G\	4ee-/	4b-\	.
[8B-\J)	.	.	.
=174	=174	=174	=174
*^	*	*	*
*	*xywh-#14:390,2477,2760,629	*	*	*
8B-/L]	[2AA-X\	2dd-X/	[2e-\	.
8E-/	.	.	.	.
8F/	.	.	.	.
8G/J	.	.	.	.
.	.	16qqcc/LL	.	.
.	.	16qqee-/	.	.
.	.	16qqdd-/JJ	.	.
8A-X/L	4AA-\]	4cc/	4e-\]	.
8E-/	.	.	.	.
8C/	4r	4rcc	4rd	.
8AA-X/J	.	.	.	.
*v	*v	*	*	*
*	*v	*v	*
=175	=175	=175
*ped	*	*
8r	2cc 2a-X\	] p
8FF/L	.	.
8AA-X/	.	.
8C/J	.	.
8F\L	2ff 2a-\	.
8A-X\	.	.
8c\	.	.
*Xped	*	*
8f\J	.	.
!!LO:LB:g=original
=176	=176	=176
*xywh-#14:378,3055,2777,818	*xywh-#14:378,3055,2777,818	*
!	!	!LO:HP:t=cres.
8r	2ddd 2dd\	<
*ped	*	*
8BBB-/L	.	.
8FF/	.	.
8AA-X/J	.	.
8D\L	2aaa-X 2aa-X\	.
8F\	.	.
8A-X\	.	.
*Xped	*	*
8d\J	.	.
=177	=177	=177
*ped	*	*
8r	2fff 2ff\	.
8BB-\L	.	.
8F\	.	.
8A-X\J	.	.
*clefG2	*	*
*	*8va	*
8d/L	2ffff 2fff\	.
8f/	.	.
8a-X/	.	.
*Xped	*	*
8dd/J	.	.
=178	=178	=178
*ped	*	*
8ff\	16ffffLL 16fff\	f
.	16dddd\	.
8r	16bbb-\	.
.	16aaa-X\JJ	.
4r	16fff\LL	.
.	16ddd\	.
.	16bb-\	.
.	16aa-X\JJ	.
*	*X8va	*
2r	16ff\LL	.
.	16dd\	.
.	16b-\	.
.	16a-\JJ	.
!	!	!LO:HP:t=dimin.
.	16f/LL	>
.	16d/	.
.	16cc/	.
.	16b-/JJ	.
*clefF4	*	*
*Xped	*	*
=179	=179	=179
4r	[>1g	pp
4B- 4D-X\	.	.
4B- 4D-\	.	.
4B- 4D-\	.	.
=180	=180	=180
4B- 4D-X\	8g/L]	<
.	(8e-/	.
4r	8g/	.
.	8b-/J	.
2r	8dd-X\L	.
.	8b-\	.
.	8ff\	[>
.	8ee-\J)	]
!!LO:PB:g=original
=181	=181	=181
*xywh-#15:199,477,2763,747	*xywh-#15:199,477,2763,747	*
4r	[1ee-	.
4A- 4CX\	.	.
4A- 4C\	.	.
4A- 4C\	.	.
=182	=182	=182
4A- 4CX\	8ee-\L]	<
.	(8e-\	.
4r	8a-X\	.
.	8cc\J	.
2r	8ee-\L	.
.	8aa-X\	.
.	8gg\	.
.	8ff\J)	[
=183	=183	=183
4r	[1ee-	.
4e- 4G\	.	.
4e- 4G\	.	.
4e- 4G\	.	.
=184	=184	=184
4e- 4G\	8ee-\L]	.
!	!	!LO:HP:t=cres.
.	(8ddd-X\	<
4r	8bb-\	.
.	8ff#X\J	.
2r	8gg\L	.
.	8ddn\	.
.	8ee-\	.
.	8dd-X\J	.
=185	=185	=185
*	*^	*
*	*	*xywh-#15:199,477,2763,747	*
8r	8cc\)	8cc\yy	f
*	*8va	*8va	*
4AA-X 4AAA-X/	8eeee-/	16cccc^\LL	.
.	.	16bbbn\JJ	.
.	8ryy	16eeee- 16cccc\LL	.
.	.	16eee-\	.
4E- 4EE-/	8cccc/	16cccc 16aaa^\	.
.	.	16ggg\JJ	.
.	8ryy	16cccc 16aaa\LL	.
.	.	16ccc\	.
4C 4CC/	8aaa/	16eee-^\	.
.	.	16ddd\JJ	.
.	8ryy	16aaa 16eee-\LL	.
.	.	16aa-X\	.
[8A-X [8AA-X\	8eee-/	16eee- 16ccc^\	.
.	.	16bbn\JJ	.
*	*v	*v	*
*	*X8va	*
!!LO:LB:g=original
=186	=186	=186
*	*^	*
*xywh-#15:204,1144,2749,697	*xywh-#15:204,1144,2749,697	*xywh-#15:204,1144,2749,697	*
8A-X] 8AA-X\]	8ryy	16eee- 16ccc\LL	.
.	.	16ee-\	.
4E- 4EE-/	8ccc/	16ccc 16aa-X^\	.
.	.	16gg\JJ	.
.	8ryy	16ccc 16aa-\LL	.
.	.	16cc\	.
[8c [8C\	8aa-/	16aa- 16ee-^\	.
.	.	16dd\JJ	.
8c]L 8C\]	8aa- 8ee-`\L	8ryy	p
8c 8A-`\	8ccc 8ff`\	8ryy	.
8d-X 8B-`\	8bb- 8dd-X`\	8ryy	.
8e-J 8c`\	8aa- 8cc`\J	8ryy	.
=187	=187	=187	=187
8en 8d-X\	8gg 8b-\	8b-\	.
*	*8va	*8va	*
4GG 4GGG/	8dddd-X/	16dddd-X 16bbb-^\LL	f
.	.	16aaan\JJ	.
.	8ryy	16dddd- 16bbb-\LL	.
.	.	16ddd-X\	.
4BB- 4BBB-/	8bbb-/	16bbb- 16ggg^\	.
.	.	16fff#X\JJ	.
.	8ryy	16bbb- 16ggg\LL	.
.	.	16bb-\	.
4D-X 4DD-X/	8ggg/	16ggg 16eeen^\	.
.	.	16ddd#X\JJ	.
.	8ryy	16ggg 16eee\LL	.
.	.	16gg\	.
[8En [8EEn/	8ddd-X/	16ddd-X 16bb-^\	.
.	.	16aa\JJ	.
*	*v	*v	*
*	*X8va	*
=188	=188	=188
*	*^	*
*	*	*xywh-#15:204,1144,2749,697	*
8EnX] 8EEnX/]	8ryy	16ddd- 16bb-\LL	.
.	.	16dd-X\	.
4G 4GG/	8bb-/	16bb- 16gg^\	.
.	.	16ff#X\JJ	.
.	8ryy	16bb- 16gg\LL	.
.	.	16b-\	.
[8B- [8BB-\	8gg/	16gg 16een^\	.
.	.	16dd#X\JJ	.
8B-]L 8BB-\]	8gg 8ee\L	8ryy	p
8G 8E`\	8bb- 8dd-X`\	8ryy	.
8A-X 8F`\	8aa-X 8cc`\	8ryy	.
8B-J 8G`\	8gg 88b-`\J	8ryy	.
!!LO:LB:g=original
=189	=189	=189	=189
*xywh-#15:230,1807,2735,688	*xywh-#15:230,1807,2735,688	*xywh-#15:230,1807,2735,688	*
8c 8A-X\	8ff 8a-X\	8a-\	.
*	*8va	*8va	*
4FF 4FFF/	8cccc/	16cccc 16aaa-X^\LL	f
.	.	16ggg\JJ	.
.	8ryy	16cccc 16aaa-\LL	.
.	.	16ccc\	.
4C 4CC/	8aaa-/	16aaa- 16fff^\	.
.	.	16eeen\JJ	.
.	8ryy	16aaa- 16fff\LL	.
.	.	16aa-\	.
4AA-X 4AAA-X/	8fff/	16fff 16ccc^\	.
.	.	16bbn\JJ	.
.	8ryy	16fff 16ccc\LL	.
.	.	16ff\	.
[8F [8FF/	8ccc/	16ccc 16aa-^\	.
.	.	16gg\JJ	.
*	*v	*v	*
*	*X8va	*
=190	=190	=190
*	*^	*
*	*	*xywh-#15:230,1807,2735,688	*
8F] 8FF/]	8ryy	16ccc 16aa-X\LL	.
.	.	16cc\	.
4C 4CC/	8aa-/	16aa- 16ff^\	.
.	.	16een\JJ	.
.	8ryy	16aa- 16ff\LL	.
.	.	16a-X\	.
[8A-X [8AA-X\	8ff/	16ff 16cc^\	.
.	.	16bn\JJ	.
8A-]L 8AA-\]	8ff 8cc\L	8ryy	p
8F 8D`\	8aa- 8cc`\	8ryy	.
8A- 8F`\	8ff 8a-`\	8ryy	.
8cJ 8A-`\	8cc 8f`\J	8ryy	.
*	*v	*v	*
=191	=191	=191
8Bn 8G\	8dd 8f\	.
*	*8va	*
8r	16aaa-XL 16fff\L	f
.	16gggJJ 16eee-\	.
4r	16fffLL 16ddd\	.
.	16eee- 16ccc\	.
.	16ddd 16bbn\	.
.	16eee-JJ 16ccc\	.
2r	16fffLL 16ddd\	.
.	16eee- 16ccc\	.
.	16ddd 16bb\	.
.	16cccJJ 16aa-X\	.
*	*X8va	*
.	16bbnLL 16gg\	.
.	16aa- 16ff\	.
.	16gg 16ee-\	.
.	16ffJJ 16dd\	.
!!LO:LB:g=original
=192	=192	=192
*xywh-#15:225,2459,2744,597	*xywh-#15:225,2459,2744,597	*
2r	16ee-LL 16cc\	.
.	16dd 16bn\	.
.	16aa-X 16ff\	.
.	16ggJJ 16ee-\	.
.	16ffLL 16dd\	.
.	16ee- 16cc\	.
.	16dd 16b\	.
.	16ee-JJ 16cc\	.
!	!	!LO:HP:t=dimin.
8r	16ffLL 16dd\	>
.	16ee- 16cc\	.
(8BBnL 8GG/	16dd 16b\	.
.	16ccJJ 16a-X\	.
8C 8AAn/	16bLL 16g/	.
.	16a- 16f/	.
8DJ 8BB/)	16g 16e-/	.
.	16fJJ 16d/	.
=193	=193	=193
12E-L 12C\	2ee- 2e-\	p
12G 12GG\	.	.
12AnJ 12AAn\	.	.
12BnL 12BBn\	.	.
12c 12C\	.	.
12dJ 12D\	.	.
12e-L 12E-\	2gg 2g\	.
12d 12D\	.	.
12cJ 12C\	.	.
12B-XL 12BB-X\	.	.
12A 12AA\	.	.
12GJ 12GG\	.	.
=194	=194	=194
2F#X 2FF#X/	12aaL 12a\	.
.	12dd 12d\	.
.	12eenJ 12en\	.
!	!	!LO:HP:t=cres.
.	12ff#XL 12f#X\	<
.	12aa 12a\	.
.	12bb-J 12b-\	.
2A 2AA\	12cccL 12cc\	.
.	12eee- 12ee\	.
.	12dddJ 12dd\	.
.	12cccL 12cc\	.
.	12bb- 12b-\	.
.	12aaJ 12a\	.
!!LO:LB:g=original
=195	=195	=195
*xywh-#15:161,3034,2772,747	*xywh-#15:161,3034,2772,747	*
2GG 2GGG/	12bbnL 12bn\	.
.	12g 12G\	.
.	12aJ 12A\	.
.	12bL 12Bn\	.
.	12dd 12d\	.
.	12ee-J 12e-\	.
2BBn 2BBBn/	12ffL 12f\	.
.	12aa-X 12a-X\	.
.	12ggJ 12g\	.
.	12ffL 12f\	.
.	12ee- 12e-\	.
.	12ddJ 12d\	.
=196	=196	=196
*^	*^	*
*	*xywh-#15:161,3034,2772,747	*	*xywh-#15:161,3034,2772,747	*
!	!LO:N:vis=2	!	!	!
2C\	12C/L	2ee-/	12e-\L	.
.	12E-/	.	12g\	.
.	12F/J	.	12f\J	.
.	12G/L	.	12e-\L	.
.	12F/	.	12f\	.
.	12E-/J	.	12g\J	.
!	!LO:N:vis=2	!	!LO:TX:t=P:problem:dynamics with extension lines	!LO:HP:t=dimi-nuen-do-e-rallentando
!	!	!	!LO:N:vis=2	!
2AA\	12AA/L	2cc/	12cc\L	>
.	12C/	.	12e-\	.
.	12D/J	.	12d\J	.
.	12E-/L	.	12c\L	.
.	12D/	.	12d\	.
.	12C/J	.	12e-\J	.
=197	=197	=197	=197	=197
!	!LO:N:vis=2	!	!LO:N:vis=2	!
2FF#X\	12FF#/L	2a/	12a\L	.
.	12AA/	.	12c\	.
.	12BB-/J	.	12B-\J	.
.	12C/L	.	12A\L	.
.	12BB-/	.	12B-\	.
.	12AA/J	.	12c\J	.
!	!LO:N:vis=2	!	!LO:N:vis=2	!
2EE-\	12EE-/L	2g/	12g\L	.
.	12C/	.	12A\	.
.	12BB-/J	.	12B-\J	.
.	12AA/L	.	12c\L	.
.	12BB-/	.	12d\	.
.	12C/J	.	12e-\J	.
*v	*v	*	*	*
*	*v	*v	*
=198	=198	=198
4D 4DD/	12f#XL 12A/	.
.	12c#X/	.
.	12d/J	.
4r	12c#/L	.
.	12d/	.
.	12c#/J	.
2r	12d/L	.
.	12c#/	.
.	12d/J	.
.	12c#/L	.
.	12d/	.
.	12cn/J	.
*kcancel	*kcancel	*
!!LO:PB:g=original
=199||	=199||	=199||
*k[f#]	*k[f#]	*
*^	*	*
*xywh-#16:391,475,2760,769	*xywh-#16:391,475,2760,769	*xywh-#16:391,475,2760,769	*
!	!	!	!
!	!	!LO:TX:a:B:t=Un poco più sostenuto con gran espressione.	!
4rA	2GG\	(2b 2B/	<
2D/	.	.	.
.	2AA\	2f# 2c/	.
[4D/	.	.	.
=200	=200	=200	=200
4D/]	2BB\	2g 2d/	.
2G/	.	.	.
.	2C\	2ee 2e/)	.
[4G/	.	.	[[
=201	=201	=201	=201
*	*	*^	*
*	*	*	*xywh-#16:391,475,2760,769	*
4G/]	2D\	2..dd/	(1g	>
2B/	.	.	.	.
.	2E\	.	.	.
4G/	.	.	.	.
.	.	8cc/	.	.
=202	=202	=202	=202	=202
4F#/	2F#\	4.b/	2d#X\	.
2B/	.	.	.	.
.	.	8a/	.	.
.	2E\	4g/	4e\)	.
4B/	.	4r	4ryy	]
*	*	*v	*v	*
=203	=203	=203	=203
4c/	2C\	(2ee 2e\	<
2G/	.	.	.
.	2D\	2b 2fn\	.
[4G/	.	.	.
=204	=204	=204	=204
4G/]	2E\	2cc 2g\	.
2c/	.	.	.
.	2Fn\	2aa 2a\)	.
[4c/	.	.	[[
=205	=205	=205	=205
*	*	*^	*
*	*	*	*xywh-#16:391,475,2760,769	*
4c/]	2G\	2..gg/	1cc	>
2e/	.	.	.	.
.	2A\	.	.	.
4c/	.	.	.	.
.	.	8ffn/	.	.
=206	=206	=206	=206	=206
4B/	2B\	4.ee/	2g#X\	.
2e/	.	.	.	.
.	.	8dd/	.	.
.	2A\	4cc/	4a\	.
4e/	.	4r	4ryy	]
*v	*v	*	*	*
*	*v	*v	*
!!LO:LB:g=original
=207	=207	=207
*xywh-#16:376,1226,2755,632	*xywh-#16:376,1226,2755,632	*
!	!LO:TX:b:i:t=risoluto	!
8D#XL 8DD#X\	8b\	mf
8B 8F# 8D#\	8r	.
8B 8F# 8D#\	2bb 2b\	.
8BJ 8F# 8D#\	.	.
8BL 8F# 8D#\	.	.
8B 8F# 8D#\	.	.
8B 8F# 8D#\	4ff#t\	.
8BJ 8F# 8D#\	.	.
=208	=208	=208
8EL 8EE\	4gg'\	.
8B 8G 8E\	.	.
8B 8G 8E\	4ee'\	.
8BJ 8G 8E\	.	.
8BL 8G 8E\	4b'\	.
8B 8G 8E\	.	.
8B 8G 8E\	4g'/	.
8BJ 8G 8E\	.	.
=209	=209	=209
8BBL 8BBB\	8d/	.
8d 8G 8Fn\	8r	.
8d 8G 8F\	2ggg 2gg\	.
8dJ 8G 8F\	.	.
8dL 8G 8F\	.	.
8d 8G 8F\	.	.
8d 8G 8F\	4dddT\	.
8dJ 8G 8F\	.	.
=210	=210	=210
!	!	!LO:HP:t=dimin.
8CL 8CC\	[2eee [2ee\	>
8C\	.	.
8G\	.	.
8c\J	.	.
8e\	8eee]L 8ee\]	.
8r	8ccc\	.
4r	8aa\	.
.	8gg\J	.
=211	=211	=211
4r	8ff#\	.
.	8r	.
!	!	!LO:HP:b=2
4A 4F#\	[4dd\	<
2B-X 2G\	8dd\L]	[
!	!	!LO:HP:t=cres.
.	8ee-X\	<
.	8qgg/	.
.	8ffn\	.
.	8ee-\J	.
!!LO:LB:g=original
=212	=212	=212
*xywh-#16:366,1819,2765,627	*xywh-#16:366,1819,2765,627	*
4r	8ee-X\L	.
.	8dd\J	.
!	!	!LO:HP:b=2
4A 4F#\	[4aa\	<
2B-X 2G\	8aa\L]	[
.	8ee-\	.
.	8qgg/	.
.	8ffn\	.
.	8ee-\J	.
=213	=213	=213
*^	*	*
*	*xywh-#16:366,1819,2765,627	*	*
4r	2ryy	8ee-X\L	.
.	.	8dd\J	.
8AL 8F#\	.	[4aa\	.
8B-XJ 8G\	.	.	.
!	!	!	!LO:HP:t=dimin.
4c/	2A\	8aa\L]	>
.	.	8ffn\	.
4fn/	.	8een\	.
.	.	8ee-X\J	.
=214	=214	=214	=214
4B-X/	2BB-X\	(2dd 2d/	.
2Fn/	.	.	.
.	2C\	2a 2e-X/	.
[4F/	.	.	.
=215	=215	=215	=215
4FnX/]	2D\	2b-X 2f#/	.
2B-X/	.	.	.
*	*	*tuplet	*
!	!	!LO:TUP:a:problem:klamra łukowa	!
.	2E-X\	12r	.
.	.	12gg\L	.
.	.	12ff#X\J	.
!	!	!LO:TUP:a:problem:klamra łukowa	!
[4e-X/	.	12gg\L	.
.	.	12aa\	.
.	.	12gg\J	.
=216	=216	=216	=216
!	!	!LO:TUP:a:problem:klamra łukowa	!LO:HP:t=cres.
4e-X/]	2Fn\	12r	<
.	.	12ffn\L	.
.	.	12ee\J	.
!	!	!LO:TUP:a:problem:klamra łukowa	!
4d/	.	12ff\L	.
.	.	12gg\	.
.	.	12ff\J	.
!	!	!LO:TUP:a:problem:klamra łukowa	!
4A/	2F#X\	12r	.
.	.	12ee-X\L	.
.	.	12dd\J	.
!	!	!LO:TUP:a:problem:klamra łukowa	!
[4c/	.	12ee-\L	.
.	.	12ff\	.
.	.	12ee-\J)	.
!!LO:LB:g=original
=217	=217	=217	=217
*xywh-#16:376,2443,2746,647	*xywh-#16:376,2443,2746,647	*xywh-#16:376,2443,2746,647	*
!	!	!LO:TUP:a:problem:klamra łukowa	!
4c/]	2G\	12r	.
.	.	12dd\L	.
.	.	12cc#X\J	.
!	!	!LO:TUP:a:problem:klamra łukowa	!
4B-X/	.	12dd\L	.
.	.	12ee-X\	.
.	.	12dd\J	.
!	!	!LO:TUP:a:problem:klamra łukowa	!
4G/	2E-X\	12r	.
.	.	12ccn\L	.
.	.	12b-X\J	.
!	!	!LO:TUP:a:problem:klamra łukowa	!
4c#X/	.	12a\L	.
.	.	12b-\	.
.	.	12g\J	.
=218	=218	=218	=218
*ped	*	*	*
8r	8ryy	[2dd\	p
8DD/L	4.DD\	.	.
8GG/	.	.	.
8BB/J	.	.	.
*Xped	*	*	*
!LO:N:vis=2	!	!	!
8D/L	2D\	8dd\L]	.
8G/	.	8b\	.
8B/	.	8a\	.
8d/J	.	8g\J	.
=219	=219	=219	=219
*ped	*	*	*
8r	8ryy	[2ee\	.
8DD/L	4.DD\	.	.
8GG#X/	.	.	.
8BB/J	.	.	.
*Xped	*	*	*
!LO:N:vis=2	!	!	!
8D/L	2D\	8ee\L]	.
8G#X/	.	8b\	.
8B/	.	8a\	.
8d/J	.	8g#X\J	.
=220	=220	=220	=220
*ped	*	*	*
!	!	!	!LO:HP:t=cres.
8r	8ryy	[2ff#\	<
8DD/L	4.DD\	.	.
8AA/	.	.	.
8C/J	.	.	.
*Xped	*	*	*
!LO:N:vis=2	!	!	!
8D/L	2D\	8ff#\L]	.
8A/	.	8cc\	.
8c/	.	8b\	.
8f#/J	.	8a\J	.
=221	=221	=221	=221
*ped	*	*	*
8r	8ryy	[2ccc [2cc\	.
8DD#/L	4.DD#\	.	.
8AA/	.	.	.
8C/J	.	.	.
*Xped	*	*	*
!LO:N:vis=2	!	!	!
8F#/L	2F#\	8ccc]L 8cc\]	.
8A/	.	8aa\	.
8B/	.	8gg\	.
8c/J	.	8ff#\J	.
!!LO:LB:g=original
=222	=222	=222	=222
*xywh-#16:376,3061,2726,755	*xywh-#16:376,3061,2726,755	*xywh-#16:376,3061,2726,755	*
*ped	*	*	*
8r	8r	[2bb-X [2b-X\	.
8EE/L	4.EE\	.	.
8BB-/	.	.	.
8C#/J	.	.	.
*Xped	*	*	*
!LO:N:vis=2	!	!	!
8G/L	2G\	8bb-]L 8b-\]	.
8c#/	.	8ee\	.
8d/	.	8dd\	.
8e/J	.	8cc#X\J	.
*v	*v	*	*
=223	=223	=223
4d 4B 4G 4D\	8dddL 8dd\	.
.	16eee\L	.
.	16ddd\JJ	.
4r	16bb\LL	.
.	16gg\	.
.	16dd\	.
.	16b\JJ	.
4r	8g\	.
.	8r	.
4D 4DD/	4ff# 4dd 4cc 4a\	f
=224	=224	=224
!	!LO:TX:a:t=Tempo I.°	!
!	!LO:TX:a:i:t=brillante.	!
!	!LO:TX:t=P:problem:mixed beam	!
8GG 8GGG\	8ggL 8dd 8b 8g\	f
8rEE	16C#X</L	.
.	16D</JJ	.
8rEE	16A#X</LL	.
.	16B</	.
4F# 4D 4BB\	16F#</	.
.	16G</JJ	.
.	16c#X</LL	.
.	16d</	.
4BB 4GG\	16A#</	.
.	16B</JJ	.
.	16f#X/LL	.
.	16g/	.
[8GG [8DD/	16c#X/	.
.	16d/JJ	.
=225	=225	=225
8GG] 8DD/]	16a#X/LL	.
.	16b/	.
4d 4B\	16f#/	.
.	16g/JJ	.
.	16cc#X\LL	.
.	16dd\	.
4B 4G\	16a#\	.
.	16b\JJ	.
.	16ff#\LL	.
.	16gg\	.
4G 4D\	16cc#\	.
.	16dd\JJ	.
.	16aa#X\LL	.
.	16bb\	.
8D 8BB\	16ddd\	.
.	16gg\JJ	.
!!LO:PB:g=original
=226	=226	=226
*^	*^	*
*xywh-#17:225,431,2735,754	*xywh-#17:225,431,2735,754	*xywh-#17:225,431,2735,754	*xywh-#17:225,431,2735,754	*
8C 8AA/	8ryy	8ff#\	8ryy	.
*clefG2	*	*	*	*
16cc^/LL	[4.d\	16eee/LL	[4.ff#^\	.
16b/JJ	.	16ddd#X/JJ	.	.
16cc/LL	.	16eee/LL	.	.
16g#X/	.	16bb/	.	.
16b/	.	16dddn/	.	.
16a/JJ	.	16ccc/JJ	.	.
8f#/	8d\]	8aa/	8ff#\]	.
16a^/LL	[4.d\	16ccc/LL	[4.ff#^\	.
16g#/JJ	.	16bb/JJ	.	.
16a/LL	.	16ccc/LL	.	.
16e#X/	.	16gg#X/	.	.
16gn/	.	16bb/	.	.
16f#/JJ	.	16aa/JJ	.	.
=227	=227	=227	=227	=227
8d/	8d\]	8ff#/	8ff#\]	.
*clefF4	*	*	*	*
16c/LL	[4.D\	16ee/LL	[4.f#^\	.
16B/JJ	.	16dd#X/JJ	.	.
16c/LL	.	16ee/LL	.	.
16G#X/	.	16b/	.	.
16B/	.	16ddn/	.	.
16A/JJ	.	16cc/JJ	.	.
8F#/L	8D\]	8a/L	8f#\]	.
16A/L	8ryy	16cc/L	8ryy	.
16F#/JJ	.	16a/JJ	.	.
16E-X/LL	4ryy	16f#/LL	4ryy	.
16C/	.	16e-X/	.	.
16AA/	.	16c/	.	.
16FF#/JJ	.	16A/JJ	.	.
*v	*v	*	*	*
*	*v	*v	*
=228||	=228||	=228||
*k[b-e-]	*k[b-e-]	*
8GG\	8G</L	.
8rEE	16C#X</L	.
.	16D</JJ	.
8rEE	16c</LL	.
.	16B-</	.
4F#X 4D 4BB-\	16F#X</	.
.	16G</JJ	.
.	16e-/LL	.
.	16d/	.
4BB- 4GG/	16A/	.
.	16B-/JJ	.
.	16a/LL	.
.	16g/	.
[8GG [8DD/	16c#X/	.
.	16d/JJ	.
!!LO:LB:g=original
=229	=229	=229
*xywh-#17:225,1162,2740,666	*xywh-#17:225,1162,2740,666	*
8GG] 8DD/]	16cc/LL	.
.	16b-/	.
4d 4B-\	16f#X/	.
.	16g/JJ	.
.	16ee-\LL	.
.	16dd\	.
4B- 4G\	16a\	.
.	16b-\JJ	.
.	16aa\LL	.
.	16gg\	.
4G 4D\	16cc#X\	.
.	16dd\JJ	.
.	16bb-\LL	.
.	16gg\	.
[8D 8BB-\	16ddd\	.
.	16gg\JJ	.
=230	=230	=230
*^	*^	*
*	*xywh-#17:225,1162,2740,666	*	*xywh-#17:225,1162,2740,666	*
8D] BBn\	8ryy	8ffn\	8ff\yy	.
*clefG2	*	*	*	*
*	*	*8va	*8va	*
16ff/LL	[4.g^\	16aaa-X/LL	[4.bbn^\	.
16een/JJ	.	16ggg/JJ	.	.
16ff/LL	.	16aaa-/LL	.	.
16cc#X/	.	16eeen/	.	.
16ee-X/	.	16ggg/	.	.
16dd/JJ	.	16fff/JJ	.	.
8bn/	8g\]	8ddd/	8bb\]	.
16dd/LL	4.g^\	16fff/LL	4.bb^\	.
16cc#X/JJ	.	16eee/JJ	.	.
16dd/LL	.	16fff/LL	.	.
16a#X/	.	16ccc#X/	.	.
16b/	.	16ddd/	.	.
16a-X/JJ	.	16cccn/JJ	.	.
=231	=231	=231	=231	=231
8g\	8g/	8bbn\	8bb/	.
*clefF4	*	*	*	*
*	*	*X8va	*X8va	*
16f/LL	[4.G^\	16aa-X/LL	[4.bn^\	.
16en/JJ	.	16gg/JJ	.	.
16f/LL	.	16aa-/LL	.	.
16c#X/	.	16een/	.	.
16e-X/	.	16gg/	.	.
16d/JJ	.	16ff/JJ	.	.
8Bn/L	4G\]	8dd/L	8.b\]	.
16d/L	.	16ff/L	.	.
16B/JJ	.	16dd/JJ	16ryy	.
16A-X/LL	4ryy	16b/LL	4ryy	.
16F/	.	16a-X/	.	.
16D/	.	16f/	.	.
16BBn/JJ	.	16d/JJ	.	.
*v	*v	*	*	*
*	*v	*v	*
!!LO:LB:g=original
=232	=232	=232
*xywh-#17:220,1809,2716,588	*xywh-#17:220,1809,2716,588	*
!	!LO:TX:t=P:problem:mixed beam	!
8C\	8c\L	.
8rGG	16D</L	.
.	16E-</JJ	.
8rGG	16d/LL	.
.	16c/	.
4E- 4C\	16F#X/	.
.	16G/JJ	.
.	16fn/LL	.
.	16e-/	.
4C 4GG/	16Bn/	.
.	16c/JJ	.
.	16a-X/LL	.
.	16g/	.
[8GG [8EE-/	16d/	.
.	16e-/JJ	.
=233	=233	=233
8GG] 8EE-/]	16dd\LL	.
.	16cc\	.
4e- 4c\	16f#X\	.
.	16g\JJ	.
.	16ffn\LL	.
.	16ee-\	.
4c 4G\	16bn\	.
.	16cc\JJ	.
.	16aa-X\LL	.
.	16gg\	.
4G 4E-\	16dd\	.
.	16ee-\JJ	.
.	16ddd\LL	.
.	16ccc\	.
8E- 8C\	16gg\	.
.	16eee-\JJ	.
=234	=234	=234
!	!LO:TX:t=P:problem:mixed beam	!
8D-X 8BB-\	8eeenL 8ddd-X 8gg\	.
8rGG	16En</L	.
.	16G</JJ	.
8rGG	16c/LL	.
.	16d-X/	.
4En 4D-\	16G/	.
.	16B-/JJ	.
.	16e-/LL	.
.	16en/	.
4D- 4BB-/	16B-/	.
.	16d-/JJ	.
.	16f#X/LL	.
.	16g/	.
[8BB- [8GG/	16e/	.
.	16g/JJ	.
!!LO:LB:g=original
=235	=235	=235
*xywh-#17:192,2369,2769,661	*xywh-#17:192,2369,2769,661	*
8BB-] 8GG/]	16cc\LL	.
.	16dd-X\	.
4B- 4G\	16g\	.
.	16b-\JJ	.
.	16ee-X\LL	.
.	16een\	.
4G 4En\	16b-\	.
.	16dd-\JJ	.
.	16ff#X\LL	.
.	16gg\	.
4E 4D-X\	16ee\	.
.	16gg\JJ	.
.	16ccc\LL	.
.	16ddd-X\	.
[8D- (8BB-/	16gg\	.
.	16eeen\JJ	.
=236	=236	=236
*^	*	*
*	*xywh-#17:192,2369,2769,661	*	*
8D-X] AA-X/)	8ryy	8fff 8ddd-X 8aa-X 8ff\	.
*	*	*^	*
*	*	*	*xywh-#17:192,2369,2769,661	*
16f/LL	[4.A-X\	16aa-/LL	[4.dd-X\	pp
16en/JJ	.	16gg/JJ	.	.
16f/LL	.	16aa-/LL	.	.
16d-X/	.	16ff/	.	.
16g-X/	.	16bb-X/	.	.
16f/JJ	.	16aa-/JJ	.	.
8e-X/	8A-\]	8gg-X/	8dd-\]	.
16e-/LL	[4.A-\	16gg-/LL	(4.cc\	.
16dn/JJ	.	16ff/JJ	.	.
16e-/LL	.	16gg-/LL	.	.
16c/	.	16ee-/	.	.
16f/	.	16aa-/	.	.
16e-/JJ	.	16gg-/JJ	.	.
=237	=237	=237	=237	=237
8d-X/	8A-X\]	8ff/	8dd-X\)	.
16f-X/LL	[4.A-\	16aa-X/LL	[4.dd-\	.
16e-/JJ	.	16gg/JJ	.	.
16f-/LL	.	16aa-/LL	.	.
16d-/	.	16ff-X/	.	.
16g-X/	.	16bb--/	.	.
16f-/JJ	.	16aa-/JJ	.	.
8e-/	8A-\]	8gg-X/	8dd-\]	.
16e-/LL	[4.A-\	16gg-/LL	(4.cc\	.
16dn/JJ	.	16ffn/JJ	.	.
16e-/LL	.	16gg-/LL	.	.
16c/	.	16ee-/	.	.
16f-/	.	16aa-/	.	.
16e-/JJ	.	16gg-/JJ	.	.
!!LO:LB:g=original
=238	=238	=238	=238	=238
*xywh-#17:183,3012,2760,774	*xywh-#17:183,3012,2760,774	*xywh-#17:183,3012,2760,774	*xywh-#17:183,3012,2760,774	*
!	!	!LO:TX:t=P:problem:brak zakończenia łuku	!	!
8d-X/	8A-X\]	8ff-X/	8dd-X\)	.
16d-/LL	[4.F-X\	16ff-/LL	[4.b--\	.
16cn/JJ	.	16ee-/JJ	.	.
16d-/LL	.	16ff-/LL	.	.
16B--/	.	16dd-X/	.	.
16e--/	.	16gg-X/	.	.
16d-/JJ	.	16ff-/JJ	.	.
8c-X/	8F-\]	8ee--/	8b--\]	.
16c-/LL	4.Fn\	16ee--/LL	4.a-X\	.
!LO:N:acc=n-	!	!	!	!
16B-/JJ	.	16dd-/JJ	.	.
16c-/LL	.	16ee--/LL	.	.
16F/	.	16a-/	.	.
16B--/	.	16dd-/	.	.
16A-X/JJ	.	16cc/JJ	.	.
*v	*v	*	*	*
*	*v	*v	*
=239	=239	=239
4G-X\	8b--\L	.
.	16bb--\L	.
.	16aa-X\JJ	.
4r	16bb--\LL	.
!	!	!LO:HP:t=cres.
.	16gg-X\	<
.	16dd-X\	.
.	16b--\JJ	.
4dn 4Bn 4A-X 4F\	16r	.
!	!LO:TX:t=P:problem:podwójny kasownik	!
!	!LO:N:acc=nn	!
.	16bn\LL	.
!	!LO:TX:t=P:problem:podwójny kasownik	!
!	!LO:N:acc=nn	!
.	16bbn\	.
.	16bb-X\JJ	.
4r	16bbn\LL	.
.	16aa-\	.
.	16ff\	.
.	16b\JJ	.
=240	=240	=240
4e- 4c-X 4A-X 4E-\	16r	.
.	16ee-\LL	.
.	16eee-\	.
.	16ddd\JJ	.
4r	16eee-\LL	.
.	16ccc-X\	.
.	16aa-X\	.
.	16ee-\JJ	.
4f 4B- 4A- 4D\	16r	.
.	16aa-\LL	.
.	16aaa-X\	.
.	16ggg\JJ	.
4r	16aaa-\LL	.
.	16fff\	.
.	16ddd\	.
.	16aa-\JJ	.
!!LO:PB:g=original
=241	=241	=241
*xywh-#18:451,507,2660,690	*xywh-#18:451,507,2660,690	*
1d 1G 1BBn	16r	.
.	16gg\LL	pp
.	16ggg\	.
.	16fff#X\JJ	.
.	16fffn\LL	.
.	16eeen\	.
.	16eee-X\	.
.	16ddd\JJ	.
.	16ccc\LL	.
.	16bbn\	.
.	16ddd\	.
.	16ccc\JJ	.
.	16bb\LL	.
.	16aa-X\	.
.	16gg\	.
.	16ff\JJ	.
=242	=242	=242
!	!	!LO:HP:t=cres.
1e- 1G 1C	16ff\LL	<
.	16ee-\	.
.	16dd\	.
.	16ee-\JJ	.
.	16gg\LL	.
.	16ee-\	.
.	16ccc\	.
.	16gg\JJ	.
*	*8va	*
.	16eee-\LL	.
.	16ccc\	.
.	16ggg\	.
.	16eee-\JJ	.
.	16cccc\LL	.
.	16ggg\	.
.	16eeee-\	.
.	16cccc\JJ	.
*	*X8va	*
=243	=243	=243
1d 1B- 1G 1D	16cc\LL	.
.	16b-\	.
.	16a\	.
.	16b-\JJ	.
!	!	!LO:DY:t=sempre più forte
.	16dd\LL	f
.	16b-\	.
.	16gg\	.
.	16dd\JJ	.
.	16bb-\LL	.
.	16gg\	.
.	16ddd\	.
.	16bb-\JJ	.
*	*8va	*
.	16ggg\LL	.
.	16ddd\	.
.	16bbb-\	.
.	16ggg\JJ	.
*	*X8va	*
!!LO:LB:g=original
=244	=244	=244
*xywh-#18:442,1186,2664,670	*xywh-#18:442,1186,2664,670	*
1c#X 1B- 1G 1E-	16cc\LL	.
.	16b-\	.
.	16a\	.
.	16b-\JJ	.
.	16cc#X\LL	.
.	16b-\	.
.	16gg\	.
.	16cc#\JJ	.
.	16bb-\LL	.
.	16gg\	.
.	16ccc#X\	.
.	16bb-\JJ	.
*	*8va	*
.	16ggg\LL	.
.	16ccc#\	.
.	16bbb-\	.
.	16ggg\JJ	.
=245	=245	=245
8d 8B- 8G 8D\	8ddd\	.
*clefG2	*	*
16dd\LL	16ddddLL 16ddd\	ff
16cc#X\JJ	16cccc#XJJ 16ccc#X\	.
16ee-\LL	16eeee-LL 16eee-\	.
16dd\	16dddd 16ddd\	.
16ccn\	16ccccn 16cccn\	.
16b-\JJ	16bbb-JJ 16bb-\	.
*clefF4	*	*
16a\LL	16aaaLL 16aa\	.
16g\	16ggg 16gg\	.
16f\	16fff 16ff\	.
16e-\JJ	16eee-JJ 16ee-\	.
*	*X8va	*
16d\LL	16dddLL 16dd\	.
16c\	16ccc 16cc\	.
16B-\	16bb- 16b-\	.
16A\JJ	16aaJJ 16a\	.
!!LO:LB:g=original
=246	=246	=246
*xywh-#18:482,1841,2636,617	*xywh-#18:482,1841,2636,617	*
8G\	8gg 8g\	.
8r	8r	.
4E- 4EE-/	4bb- 4gg 4ee- 4b-\	.
4AA 4AAA/	4eee- 4ccc 4gg 4ee-\	.
4D 4DD/	4ff#X 4dd 4cc 4a\	.
=247	=247	=247
*^	*^	*
*	*xywh-#18:482,1841,2636,617	*	*xywh-#18:482,1841,2636,617	*
*ped	*	*	*	*
!LO:N:vis=2	!	!	!	!
8GG/L	2GG\	8gg 8dd 8b- 8g\	8ryy	.
8F 8D/	.	8r	8ryy	.
8Bn/	.	[2dd [2bn 2aa-X\	2ryy	p
8FJ 8D/	.	.	.	.
!LO:N:vis=2	!	!	!	!
8GG/L	2GG\	.	.	.
8F 8D/	.	.	.	.
8B/	.	[4gg/	4gg 4dd_> [4b\]	.
*Xped	*	*	*	*
8D/J	.	.	.	.
=248	=248	=248	=248	=248
*ped	*	*	*	*
!LO:N:vis=2	!	!	!	!
8GG/L	2GG\	8gg/L]	4dd] 4bnX\]	.
8F 8D/	.	8ff/J	.	.
8Bn/	.	8fff\L	4ryy	.
8F 8D/J	.	8ddd\J	.	.
!LO:N:vis=2	!	!	!	!
8GG/L	2GG\	8bbn\L	2ryy	.
8F 8D/	.	8gg\	.	.
8B/	.	8ff\	.	.
*Xped	*	*	*	*
8F 8D/J	.	8dd\J	.	.
=249	=249	=249	=249	=249
*ped	*	*	*	*
!LO:N:vis=2	!	!	!	!
8GG/L	2GG\	8cc\	8cc\yy	.
8G 8E-/	.	8r	8ryy	.
8c/	.	2eee-/	[2.ee-\	.
8GJ 8E-/	.	.	.	.
!LO:N:vis=2	!	!	!	!
8GG/L	2GG\	.	.	.
8G 8E-/	.	.	.	.
8c/	.	[4ccc/	.	.
*Xped	*	*	*	*
8GJ 8E-/	.	.	.	.
*	*	*v	*v	*
!!LO:LB:g=original
=250	=250	=250	=250
*xywh-#18:478,2438,2632,633	*xywh-#18:478,2438,2632,633	*xywh-#18:478,2438,2632,633	*
*ped	*	*	*
!LO:N:vis=2	!	!	!
8GG/L	2GG\	8ccc]L 8ee-\]	.
8F 8E#X/	.	8aa\	.
*	*	*8va	*
8c/	.	8cccc\	.
8FJ 8E#/	.	8aaa\J	.
!LO:N:vis=2	!	!	!
8GG/L	2GG\	8fff#X\L	.
8F 8E#/	.	8eee-\	.
8c/	.	8ccc\	.
*Xped	*	*	*
8FJ 8E#/	.	8aa\J	.
=251	=251	=251	=251
*	*	*^	*
*ped	*	*	*	*
!LO:N:vis=2	!	!	!	!
8GG/L	2GG\	8gg/	8gg/yy	.
*	*	*X8va	*	*
8F 8D/	.	8r	8ryy	.
*	*	*v	*v	*
*	*	*^	*
8Bn/	.	2aa-X/	[>2.dd [<2.bn\	pp
8FJ 8D/	.	.	.	.
!LO:N:vis=2	!	!	!	!
8GG/L	2GG\	.	.	.
8F 8D/	.	.	.	.
8B/	.	[4gg/	.	.
8FJ 8D/	.	.	.	.
*	*	*v	*v	*
=252	=252	=252	=252
*ped	*	*	*
!LO:N:vis=2	!	!	!
8GG/L	2GG\	16ggLL] 16dd] 16bnX\]	.
.	.	16ff\	.
8F 8D/	.	16fff\	.
.	.	16ddd\JJ	.
8Bn/	.	16bbn\LL	.
.	.	16gg\	.
8FJ 8D/	.	16ff#X\	.
.	.	16gg\JJ	.
!LO:N:vis=2	!	!	!
8GG/L	2GG\	16aa-X\LL	.
.	.	16gg\	.
8F 8D/	.	16cc#X\	.
.	.	16dd\JJ	.
8B/	.	16ffn\LL	.
.	.	16dd\	.
*Xped	*	*	*
8FJ 8D/	.	16bnX\	.
.	.	16g\JJ	.
*v	*v	*	*
!!LO:LB:g=original
=253	=253	=253
*xywh-#18:417,3024,2709,752	*xywh-#18:417,3024,2709,752	*
*ped	*	*
8GG/L	8cc\	.
8G 8E-/	8r	.
8c/	[4eee- [4ee-\	.
8GJ 8E-/	.	.
*Xped	*	*
8GG/	8eee-]L 8ee-\]	.
!	!LO:TX:b:i:t=morendo	!
8r	16eee-\L	.
.	16ddd\JJ	.
4r	16eee-\LL	.
.	16ccc\	.
.	16gg\	.
.	16ee-\JJ	.
=254	=254	=254
!	!LO:TX:t=P:problem:extended text	!
!	!LO:TX:b:i:t=ritardando-poco-a-poco	!
1r	8cc\L	.
.	16gg\L	.
.	16ff#X\JJ	.
.	16gg\LL	.
.	16ee-\	.
.	16cc\	.
.	16g\JJ	.
.	8e-\L	.
.	16ee-\L	.
.	16dd\JJ	.
.	16ee-\LL	.
.	16cc\	.
.	16g\	.
.	16e-\JJ	.
=255	=255	=255
2rE	8c/L	.
.	16g/L	.
.	16f#X/JJ	.
.	16g/LL	.
.	16e-/	.
.	16c/	.
.	16G</JJ	.
4r	8E-</	.
.	8r<	.
4C 4CC\	4e- 4c 4G< 4E-</	.
*ped	*	*
=256	=256	=256
1GG 1GGG;<	1d 1Bn< 1G< 1D<;	.
*Xped	*	*
.	.	.
==	==	==
*-	*-	*-
!!!system-decoration: {(s1,s2)}
!!!RDF**kern: > = above
!!!RDF**kern: < = below
!!!RDF**kern: N = linked
!!!RDF**dynam: f = "F", fontstyle="bold-italic"
!!!RDF**dynam: ff = "FF", fontstyle="bold-italic"
!!!RDF**dynam: mf = "mF", fontstyle="bold-italic"
!!!ENC: Katarzyna Serwa
!!!END: 2022-03-31
!!!ENC: Marta Opryszak
!!!END: 2022-03-26
!!!ENC-iiif: Emilia Ziętek
!!!END-iiif: 2022-09-01
!!!YEC: Copyright 2022 Narodowy Instytut Fryderyka Chopina (https://polishscores.org)
!!!YEM: License CC-BY-4.0 (https://creativecommons.org/licenses/by/4.0)
